(/Applications/pcbgcode.repo/pcb-gcode.ulp)
(Copyright 2005 - 2012 by John Johnson)
(See readme.txt for licensing terms.)
(This file generated from the board:)
(.../eurorack/CR78-SD/eagle/CR78-SD.brd)
(Current profile is .../pcbgcode.repo/profiles/mach.pp  )
(This file generated 6/10/16 9:57 PM)
(Settings from pcb-machine.h)
(spindle on time = 0.0000)
(  Tool Size)
(0.0030  )
(spindle speed = 30000.0000)
(tool change at 0.0000  0.0000  1.5000  )
(feed rate xy = F20    )
(feed rate z  = F10    )
(Z Axis Settings)
(  High     Up        Down     Drill)
(0.2500  	0.0500  	-0.0035 	-0.0750 )
(Settings from pcb-defaults.h)
(isolate min = 0.0050)
(isolate max = 0.0200)
(isolate step = 0.0010)
(Generated bottom outlines, bottom drill, )
(Unit of measure: inch)
(Inch Mode)
G20
(Absolute Coordinates)
G90
S30000
G00 Z0.2500  
G00 X0.0000  Y0.0000  
M03
G04 P0.000000
G00 Z0.0500  
G00 X-0.0553 Y0.2000  
G01 Z-0.0035 F10    
G01 X-0.0501 Y0.2072  F20    
G01 X-0.0461 Y0.2152  
G01 X-0.0433 Y0.2236  
G01 X-0.0419 Y0.2324  
G01 X-0.0419 Y0.3384  
G01 X-0.0382 Y0.3408  
G01 X-0.0362 Y0.3420  
G01 X-0.0357 Y0.3425  
G01 X-0.0352 Y0.3428  
G01 X-0.0336 Y0.3446  
G01 X-0.0320 Y0.3462  
G01 X-0.0317 Y0.3468  
G01 X-0.0312 Y0.3473  
G01 X-0.0302 Y0.3493  
G01 X-0.0290 Y0.3513  
G01 X-0.0289 Y0.3520  
G01 X-0.0286 Y0.3525  
G01 X-0.0281 Y0.3548  
G01 X-0.0275 Y0.3570  
G01 X-0.0275 Y0.3577  
G01 X-0.0274 Y0.3584  
G01 X-0.0275 Y0.3607  
G01 X-0.0275 Y1.9984  
G01 X-0.0273 Y1.9997  
G01 X-0.0275 Y2.0013  
G01 X-0.0275 Y2.0030  
G01 X-0.0278 Y2.0043  
G01 X-0.0280 Y2.0056  
G01 X-0.0286 Y2.0071  
G01 X-0.0290 Y2.0087  
G01 X-0.0297 Y2.0099  
G01 X-0.0486 Y2.0571  
G01 X-0.0490 Y2.0587  
G01 X-0.0497 Y2.0599  
G01 X-0.0502 Y2.0611  
G01 X-0.0512 Y2.0624  
G01 X-0.0520 Y2.0638  
G01 X-0.0530 Y2.0648  
G01 X-0.0538 Y2.0659  
G01 X-0.0550 Y2.0669  
G01 X-0.0562 Y2.0680  
G01 X-0.0574 Y2.0687  
G01 X-0.0584 Y2.0695  
G01 X-0.0599 Y2.0702  
G01 X-0.0613 Y2.0710  
G01 X-0.0626 Y2.0713  
G01 X-0.0639 Y2.0718  
G01 X-0.0655 Y2.0721  
G01 X-0.0670 Y2.0725  
G01 X-0.0684 Y2.0725  
G01 X-0.0697 Y2.0727  
G01 X-0.0713 Y2.0725  
G01 X-0.1730 Y2.0725  
G01 X-0.1787 Y2.0710  
G01 X-0.1838 Y2.0680  
G01 X-0.2338 Y2.0180  
G01 X-0.2380 Y2.0138  
G01 X-0.2410 Y2.0087  
G01 X-0.2425 Y2.0030  
G01 X-0.2425 Y1.9793  
G01 X-0.3520 Y2.0888  
G01 X-0.3562 Y2.0930  
G01 X-0.3613 Y2.0960  
G01 X-0.3670 Y2.0975  
G01 X-1.3480 Y2.0975  
G01 X-1.3537 Y2.0960  
G01 X-1.3588 Y2.0930  
G01 X-1.4450 Y2.0068  
G01 X-1.4770 Y2.0388  
G01 X-1.4812 Y2.0430  
G01 X-1.4863 Y2.0460  
G01 X-1.4920 Y2.0475  
G01 X-1.5480 Y2.0475  
G01 X-1.5537 Y2.0460  
G01 X-1.5588 Y2.0430  
G01 X-1.8088 Y1.7930  
G01 X-1.8130 Y1.7888  
G01 X-1.8160 Y1.7837  
G01 X-1.8175 Y1.7780  
G01 X-1.8175 Y1.6654  
G01 X-2.1065 Y1.6375  
G01 X-2.1087 Y1.6374  
G01 X-2.1094 Y1.6372  
G01 X-2.1101 Y1.6371  
G01 X-2.1122 Y1.6363  
G01 X-2.1144 Y1.6356  
G01 X-2.1150 Y1.6353  
G01 X-2.1157 Y1.6350  
G01 X-2.1175 Y1.6337  
G01 X-2.1194 Y1.6325  
G01 X-2.1199 Y1.6320  
G01 X-2.1205 Y1.6316  
G01 X-2.1219 Y1.6298  
G01 X-2.1235 Y1.6282  
G01 X-2.1238 Y1.6276  
G01 X-2.1243 Y1.6270  
G01 X-2.1252 Y1.6250  
G01 X-2.1263 Y1.6229  
G01 X-2.1264 Y1.6223  
G01 X-2.1267 Y1.6216  
G01 X-2.1271 Y1.6194  
G01 X-2.1362 Y1.5797  
G01 X-2.1525 Y1.5635  
G01 X-2.1525 Y1.5493  
G01 X-2.1880 Y1.5138  
G01 X-2.1910 Y1.5087  
G01 X-2.1925 Y1.5030  
G01 X-2.1925 Y0.9735  
G01 X-2.2025 Y0.9635  
G01 X-2.2025 Y0.9365  
G01 X-2.1835 Y0.9175  
G01 X-2.1565 Y0.9175  
G01 X-2.1375 Y0.9365  
G01 X-2.1375 Y0.9635  
G01 X-2.1475 Y0.9735  
G01 X-2.1475 Y1.4907  
G01 X-2.1207 Y1.5175  
G01 X-2.1065 Y1.5175  
G01 X-2.0875 Y1.5365  
G01 X-2.0875 Y1.5635  
G01 X-2.0926 Y1.5686  
G01 X-2.0867 Y1.5942  
G01 X-1.8080 Y1.6211  
G01 X-1.7425 Y1.4945  
G01 X-1.7425 Y1.4735  
G01 X-1.7525 Y1.4635  
G01 X-1.7525 Y1.4365  
G01 X-1.7425 Y1.4265  
G01 X-1.7425 Y1.4220  
G01 X-1.7410 Y1.4163  
G01 X-1.7380 Y1.4112  
G01 X-1.7338 Y1.4070  
G01 X-1.7143 Y1.3875  
G01 X-1.9630 Y1.1388  
G01 X-1.9660 Y1.1337  
G01 X-1.9675 Y1.1280  
G01 X-1.9675 Y0.6220  
G01 X-1.9660 Y0.6163  
G01 X-1.9630 Y0.6112  
G01 X-1.9088 Y0.5570  
G01 X-1.9037 Y0.5540  
G01 X-1.8980 Y0.5525  
G01 X-1.8420 Y0.5525  
G01 X-1.8363 Y0.5540  
G01 X-1.8312 Y0.5570  
G01 X-1.8270 Y0.5612  
G01 X-1.8107 Y0.5775  
G01 X-1.4935 Y0.5775  
G01 X-1.4835 Y0.5675  
G01 X-1.4693 Y0.5675  
G01 X-1.4025 Y0.5007  
G01 X-1.4025 Y0.4865  
G01 X-1.3835 Y0.4675  
G01 X-1.3565 Y0.4675  
G01 X-1.3375 Y0.4865  
G01 X-1.3375 Y0.5135  
G01 X-1.3565 Y0.5325  
G01 X-1.3707 Y0.5325  
G01 X-1.4375 Y0.5993  
G01 X-1.4375 Y0.6135  
G01 X-1.4565 Y0.6325  
G01 X-1.4835 Y0.6325  
G01 X-1.4935 Y0.6225  
G01 X-1.8230 Y0.6225  
G01 X-1.8287 Y0.6210  
G01 X-1.8338 Y0.6180  
G01 X-1.8543 Y0.5975  
G01 X-1.8857 Y0.5975  
G01 X-1.9225 Y0.6343  
G01 X-1.9225 Y1.1157  
G01 X-1.6857 Y1.3525  
G01 X-1.6793 Y1.3525  
G01 X-1.5675 Y1.2407  
G01 X-1.5675 Y1.1503  
G01 X-1.5676 Y1.1476  
G01 X-1.5675 Y1.1473  
G01 X-1.5675 Y1.1470  
G01 X-1.5668 Y1.1445  
G01 X-1.5662 Y1.1419  
G01 X-1.5660 Y1.1416  
G01 X-1.5660 Y1.1413  
G01 X-1.5646 Y1.1390  
G01 X-1.5634 Y1.1367  
G01 X-1.5632 Y1.1364  
G01 X-1.5630 Y1.1362  
G01 X-1.5611 Y1.1343  
G01 X-1.3732 Y0.9364  
G01 X-1.3730 Y0.9362  
G01 X-1.3711 Y0.9343  
G01 X-1.3693 Y0.9324  
G01 X-1.3690 Y0.9322  
G01 X-1.3688 Y0.9320  
G01 X-1.3665 Y0.9307  
G01 X-1.3642 Y0.9293  
G01 X-1.3639 Y0.9292  
G01 X-1.3637 Y0.9290  
G01 X-1.3611 Y0.9283  
G01 X-1.3585 Y0.9276  
G01 X-1.3582 Y0.9276  
G01 X-1.3580 Y0.9275  
G01 X-1.3553 Y0.9275  
G01 X-1.3526 Y0.9274  
G01 X-1.3523 Y0.9275  
G01 X-1.2920 Y0.9275  
G01 X-1.2863 Y0.9290  
G01 X-1.2812 Y0.9320  
G01 X-1.2770 Y0.9362  
G01 X-1.2270 Y0.9862  
G01 X-1.2240 Y0.9913  
G01 X-1.2225 Y0.9970  
G01 X-1.2225 Y1.1357  
G01 X-1.2020 Y1.1562  
G01 X-1.1990 Y1.1613  
G01 X-1.1975 Y1.1670  
G01 X-1.1975 Y1.1765  
G01 X-1.1875 Y1.1865  
G01 X-1.1875 Y1.2135  
G01 X-1.2065 Y1.2325  
G01 X-1.2335 Y1.2325  
G01 X-1.2525 Y1.2135  
G01 X-1.2525 Y1.1865  
G01 X-1.2439 Y1.1779  
G01 X-1.2588 Y1.1630  
G01 X-1.2630 Y1.1588  
G01 X-1.2660 Y1.1537  
G01 X-1.2675 Y1.1480  
G01 X-1.2675 Y1.0093  
G01 X-1.3043 Y0.9725  
G01 X-1.3453 Y0.9725  
G01 X-1.5225 Y1.1590  
G01 X-1.5225 Y1.2530  
G01 X-1.5240 Y1.2587  
G01 X-1.5270 Y1.2638  
G01 X-1.6562 Y1.3930  
G01 X-1.6936 Y1.4304  
G01 X-1.6875 Y1.4365  
G01 X-1.6875 Y1.4635  
G01 X-1.6975 Y1.4735  
G01 X-1.6975 Y1.4995  
G01 X-1.6974 Y1.5019  
G01 X-1.6975 Y1.5024  
G01 X-1.6975 Y1.5030  
G01 X-1.6981 Y1.5053  
G01 X-1.6987 Y1.5077  
G01 X-1.6989 Y1.5082  
G01 X-1.6990 Y1.5087  
G01 X-1.7003 Y1.5108  
G01 X-1.7725 Y1.6505  
G01 X-1.7725 Y1.7657  
G01 X-1.5357 Y2.0025  
G01 X-1.5043 Y2.0025  
G01 X-1.4675 Y1.9657  
G01 X-1.4675 Y1.9343  
G01 X-1.4880 Y1.9138  
G01 X-1.4910 Y1.9087  
G01 X-1.4925 Y1.9030  
G01 X-1.4925 Y1.8235  
G01 X-1.5025 Y1.8135  
G01 X-1.5025 Y1.7993  
G01 X-1.5838 Y1.7180  
G01 X-1.5880 Y1.7138  
G01 X-1.5910 Y1.7087  
G01 X-1.5925 Y1.7030  
G01 X-1.5925 Y1.6435  
G01 X-1.6025 Y1.6335  
G01 X-1.6025 Y1.6065  
G01 X-1.5835 Y1.5875  
G01 X-1.5565 Y1.5875  
G01 X-1.5375 Y1.6065  
G01 X-1.5375 Y1.6335  
G01 X-1.5475 Y1.6435  
G01 X-1.5475 Y1.6907  
G01 X-1.4707 Y1.7675  
G01 X-1.4565 Y1.7675  
G01 X-1.4375 Y1.7865  
G01 X-1.4375 Y1.8135  
G01 X-1.4475 Y1.8235  
G01 X-1.4475 Y1.8907  
G01 X-1.4312 Y1.9070  
G01 X-1.4270 Y1.9112  
G01 X-1.4240 Y1.9163  
G01 X-1.4225 Y1.9220  
G01 X-1.4225 Y1.9657  
G01 X-1.3357 Y2.0525  
G01 X-0.3793 Y2.0525  
G01 X-0.2562 Y1.9294  
G01 X-0.2562 Y1.8668  
G01 X-0.2548 Y1.8598  
G01 X-0.2521 Y1.8532  
G01 X-0.2481 Y1.8472  
G01 X-0.2431 Y1.8422  
G01 X-0.2425 Y1.8418  
G01 X-0.2425 Y1.5338  
G01 X-0.3363 Y1.4322  
G01 X-0.3365 Y1.4325  
G01 X-0.3635 Y1.4325  
G01 X-0.3825 Y1.4135  
G01 X-0.3825 Y1.3865  
G01 X-0.3635 Y1.3675  
G01 X-0.3530 Y1.3675  
G01 X-0.2963 Y1.2297  
G01 X-0.3025 Y1.2235  
G01 X-0.3025 Y1.1965  
G01 X-0.2835 Y1.1775  
G01 X-0.2793 Y1.1775  
G01 X-0.2675 Y1.1657  
G01 X-0.2675 Y0.8585  
G01 X-0.2825 Y0.8435  
G01 X-0.2825 Y0.8165  
G01 X-0.2635 Y0.7975  
G01 X-0.2365 Y0.7975  
G01 X-0.2175 Y0.8165  
G01 X-0.2175 Y0.8435  
G01 X-0.2225 Y0.8484  
G01 X-0.2225 Y0.8502  
G01 X-0.2225 Y1.1780  
G01 X-0.2240 Y1.1837  
G01 X-0.2270 Y1.1888  
G01 X-0.2375 Y1.1993  
G01 X-0.2375 Y1.2235  
G01 X-0.2503 Y1.2363  
G01 X-0.3137 Y1.3903  
G01 X-0.2038 Y1.5094  
G01 X-0.2020 Y1.5112  
G01 X-0.2018 Y1.5116  
G01 X-0.2015 Y1.5119  
G01 X-0.2003 Y1.5141  
G01 X-0.1990 Y1.5163  
G01 X-0.1989 Y1.5168  
G01 X-0.1987 Y1.5172  
G01 X-0.1982 Y1.5196  
G01 X-0.1975 Y1.5220  
G01 X-0.1975 Y1.5225  
G01 X-0.1974 Y1.5229  
G01 X-0.1975 Y1.5255  
G01 X-0.1975 Y1.8418  
G01 X-0.1969 Y1.8422  
G01 X-0.1919 Y1.8472  
G01 X-0.1879 Y1.8532  
G01 X-0.1852 Y1.8598  
G01 X-0.1838 Y1.8668  
G01 X-0.1838 Y1.9332  
G01 X-0.1852 Y1.9402  
G01 X-0.1879 Y1.9468  
G01 X-0.1919 Y1.9528  
G01 X-0.1969 Y1.9578  
G01 X-0.1975 Y1.9582  
G01 X-0.1975 Y1.9907  
G01 X-0.1607 Y2.0275  
G01 X-0.0852 Y2.0275  
G01 X-0.0725 Y1.9957  
G01 X-0.0725 Y0.3871  
G01 X-0.0767 Y0.3892  
G01 X-0.0852 Y0.3920  
G01 X-0.0940 Y0.3934  
G01 X-0.1029 Y0.3934  
G01 X-0.1117 Y0.3920  
G01 X-0.1201 Y0.3892  
G01 X-0.1280 Y0.3852  
G01 X-0.1352 Y0.3799  
G01 X-0.1415 Y0.3737  
G01 X-0.1467 Y0.3665  
G01 X-0.1508 Y0.3585  
G01 X-0.1535 Y0.3501  
G01 X-0.1549 Y0.3413  
G01 X-0.1549 Y0.2324  
G01 X-0.1535 Y0.2236  
G01 X-0.1508 Y0.2152  
G01 X-0.1467 Y0.2072  
G01 X-0.1415 Y0.2000  
G01 X-0.1352 Y0.1938  
G01 X-0.1280 Y0.1885  
G01 X-0.1201 Y0.1845  
G01 X-0.1117 Y0.1817  
G01 X-0.1029 Y0.1804  
G01 X-0.0940 Y0.1804  
G01 X-0.0852 Y0.1817  
G01 X-0.0767 Y0.1845  
G01 X-0.0688 Y0.1885  
G01 X-0.0616 Y0.1938  
G01 X-0.0553 Y0.2000  
G00 Z0.0500  
G00 X-0.1538 Y0.4341  
G01 Z-0.0035 F10    
G01 X-0.1537 Y0.4342  F20    
G01 X-0.1520 Y0.4365  
G01 X-0.1234 Y0.4747  
G01 X-0.1229 Y0.4751  
G01 X-0.1216 Y0.4770  
G01 X-0.1202 Y0.4789  
G01 X-0.1200 Y0.4795  
G01 X-0.1196 Y0.4801  
G01 X-0.1189 Y0.4822  
G01 X-0.1180 Y0.4844  
G01 X-0.1179 Y0.4850  
G01 X-0.0994 Y0.5407  
G01 X-0.0990 Y0.5413  
G01 X-0.0984 Y0.5435  
G01 X-0.0977 Y0.5457  
G01 X-0.0977 Y0.5464  
G01 X-0.0975 Y0.5470  
G01 X-0.0975 Y0.5493  
G01 X-0.0974 Y0.5516  
G01 X-0.0975 Y0.5523  
G01 X-0.0975 Y1.8418  
G01 X-0.0969 Y1.8422  
G01 X-0.0919 Y1.8472  
G01 X-0.0879 Y1.8532  
G01 X-0.0852 Y1.8598  
G01 X-0.0838 Y1.8668  
G01 X-0.0838 Y1.9332  
G01 X-0.0852 Y1.9402  
G01 X-0.0879 Y1.9468  
G01 X-0.0919 Y1.9528  
G01 X-0.0969 Y1.9578  
G01 X-0.1029 Y1.9618  
G01 X-0.1094 Y1.9645  
G01 X-0.1164 Y1.9659  
G01 X-0.1236 Y1.9659  
G01 X-0.1306 Y1.9645  
G01 X-0.1371 Y1.9618  
G01 X-0.1431 Y1.9578  
G01 X-0.1481 Y1.9528  
G01 X-0.1521 Y1.9468  
G01 X-0.1548 Y1.9402  
G01 X-0.1562 Y1.9332  
G01 X-0.1562 Y1.8668  
G01 X-0.1548 Y1.8598  
G01 X-0.1521 Y1.8532  
G01 X-0.1481 Y1.8472  
G01 X-0.1431 Y1.8422  
G01 X-0.1425 Y1.8418  
G01 X-0.1425 Y0.5537  
G01 X-0.1602 Y0.5006  
G01 X-0.1863 Y0.4658  
G01 X-0.4235 Y0.2777  
G01 X-0.4239 Y0.2775  
G01 X-0.4258 Y0.2758  
G01 X-0.4278 Y0.2743  
G01 X-0.4281 Y0.2739  
G01 X-0.4284 Y0.2736  
G01 X-0.4298 Y0.2715  
G01 X-0.4313 Y0.2695  
G01 X-0.4315 Y0.2691  
G01 X-0.5203 Y0.1386  
G01 X-0.5859 Y0.1386  
G01 X-0.5947 Y0.1372  
G01 X-0.6032 Y0.1345  
G01 X-0.6111 Y0.1304  
G01 X-0.6183 Y0.1252  
G01 X-0.6246 Y0.1189  
G01 X-0.6298 Y0.1117  
G01 X-0.6339 Y0.1038  
G01 X-0.6366 Y0.0954  
G01 X-0.6380 Y0.0866  
G01 X-0.6380 Y0.0777  
G01 X-0.6366 Y0.0689  
G01 X-0.6339 Y0.0604  
G01 X-0.6298 Y0.0525  
G01 X-0.6246 Y0.0453  
G01 X-0.6183 Y0.0390  
G01 X-0.6111 Y0.0338  
G01 X-0.6032 Y0.0298  
G01 X-0.5947 Y0.0270  
G01 X-0.5859 Y0.0256  
G01 X-0.4770 Y0.0256  
G01 X-0.4683 Y0.0270  
G01 X-0.4598 Y0.0298  
G01 X-0.4519 Y0.0338  
G01 X-0.4447 Y0.0390  
G01 X-0.4384 Y0.0453  
G01 X-0.4332 Y0.0525  
G01 X-0.4291 Y0.0604  
G01 X-0.4264 Y0.0689  
G01 X-0.4250 Y0.0777  
G01 X-0.4250 Y0.0866  
G01 X-0.4264 Y0.0954  
G01 X-0.4291 Y0.1038  
G01 X-0.4332 Y0.1117  
G01 X-0.4384 Y0.1189  
G01 X-0.4447 Y0.1252  
G01 X-0.4519 Y0.1304  
G01 X-0.4598 Y0.1345  
G01 X-0.4671 Y0.1368  
G01 X-0.3948 Y0.2430  
G01 X-0.1561 Y0.4323  
G01 X-0.1538 Y0.4341  
G00 Z0.0500  
G00 X-0.2641 Y0.4938  
G01 Z-0.0035 F10    
G01 X-0.2625 Y0.4958  F20    
G01 X-0.2609 Y0.4978  
G01 X-0.2607 Y0.4981  
G01 X-0.2605 Y0.4984  
G01 X-0.2595 Y0.5008  
G01 X-0.2584 Y0.5032  
G01 X-0.2583 Y0.5035  
G01 X-0.2094 Y0.6175  
G01 X-0.2065 Y0.6175  
G01 X-0.1875 Y0.6365  
G01 X-0.1875 Y0.6635  
G01 X-0.2065 Y0.6825  
G01 X-0.2335 Y0.6825  
G01 X-0.2525 Y0.6635  
G01 X-0.2525 Y0.6365  
G01 X-0.2509 Y0.6350  
G01 X-0.2982 Y0.5248  
G01 X-0.5616 Y0.3403  
G01 X-0.5616 Y0.3413  
G01 X-0.5630 Y0.3501  
G01 X-0.5657 Y0.3585  
G01 X-0.5698 Y0.3665  
G01 X-0.5750 Y0.3737  
G01 X-0.5813 Y0.3799  
G01 X-0.5885 Y0.3852  
G01 X-0.5964 Y0.3892  
G01 X-0.6049 Y0.3920  
G01 X-0.6137 Y0.3934  
G01 X-0.6226 Y0.3934  
G01 X-0.6313 Y0.3920  
G01 X-0.6398 Y0.3892  
G01 X-0.6477 Y0.3852  
G01 X-0.6549 Y0.3799  
G01 X-0.6612 Y0.3737  
G01 X-0.6664 Y0.3665  
G01 X-0.6705 Y0.3585  
G01 X-0.6732 Y0.3501  
G01 X-0.6746 Y0.3413  
G01 X-0.6746 Y0.2324  
G01 X-0.6732 Y0.2236  
G01 X-0.6705 Y0.2152  
G01 X-0.6664 Y0.2072  
G01 X-0.6612 Y0.2000  
G01 X-0.6549 Y0.1938  
G01 X-0.6477 Y0.1885  
G01 X-0.6398 Y0.1845  
G01 X-0.6313 Y0.1817  
G01 X-0.6226 Y0.1804  
G01 X-0.6137 Y0.1804  
G01 X-0.6049 Y0.1817  
G01 X-0.5964 Y0.1845  
G01 X-0.5885 Y0.1885  
G01 X-0.5813 Y0.1938  
G01 X-0.5750 Y0.2000  
G01 X-0.5698 Y0.2072  
G01 X-0.5657 Y0.2152  
G01 X-0.5630 Y0.2236  
G01 X-0.5616 Y0.2324  
G01 X-0.5616 Y0.2854  
G01 X-0.2692 Y0.4901  
G01 X-0.2689 Y0.4902  
G01 X-0.2668 Y0.4918  
G01 X-0.2647 Y0.4933  
G01 X-0.2644 Y0.4935  
G01 X-0.2641 Y0.4938  
G00 Z0.0500  
G00 X-0.3527 Y0.5353  
G01 Z-0.0035 F10    
G01 X-0.3524 Y0.5358  F20    
G01 X-0.3312 Y0.5570  
G01 X-0.3270 Y0.5612  
G01 X-0.3240 Y0.5663  
G01 X-0.3225 Y0.5720  
G01 X-0.3225 Y1.0780  
G01 X-0.3240 Y1.0837  
G01 X-0.3270 Y1.0888  
G01 X-0.5270 Y1.2888  
G01 X-0.5312 Y1.2930  
G01 X-0.5363 Y1.2960  
G01 X-0.5420 Y1.2975  
G01 X-0.6230 Y1.2975  
G01 X-0.6287 Y1.2960  
G01 X-0.6338 Y1.2930  
G01 X-0.6793 Y1.2475  
G01 X-0.7107 Y1.2475  
G01 X-0.7475 Y1.2843  
G01 X-0.7475 Y1.3657  
G01 X-0.7062 Y1.4070  
G01 X-0.7020 Y1.4112  
G01 X-0.6990 Y1.4163  
G01 X-0.6975 Y1.4220  
G01 X-0.6975 Y1.4780  
G01 X-0.6990 Y1.4837  
G01 X-0.7020 Y1.4888  
G01 X-0.7062 Y1.4930  
G01 X-0.7520 Y1.5388  
G01 X-0.7562 Y1.5430  
G01 X-0.7613 Y1.5460  
G01 X-0.7670 Y1.5475  
G01 X-0.8230 Y1.5475  
G01 X-0.8287 Y1.5460  
G01 X-0.8338 Y1.5430  
G01 X-1.0543 Y1.3225  
G01 X-1.1430 Y1.3225  
G01 X-1.1487 Y1.3210  
G01 X-1.1538 Y1.3180  
G01 X-1.1743 Y1.2975  
G01 X-1.2857 Y1.2975  
G01 X-1.3225 Y1.3343  
G01 X-1.3225 Y1.3657  
G01 X-1.2857 Y1.4025  
G01 X-1.2420 Y1.4025  
G01 X-1.2363 Y1.4040  
G01 X-1.2312 Y1.4070  
G01 X-1.1899 Y1.4482  
G01 X-1.1854 Y1.4452  
G01 X-1.1795 Y1.4427  
G01 X-1.1732 Y1.4415  
G01 X-1.1668 Y1.4415  
G01 X-1.1605 Y1.4427  
G01 X-1.1546 Y1.4452  
G01 X-1.1493 Y1.4488  
G01 X-1.1448 Y1.4533  
G01 X-1.1412 Y1.4586  
G01 X-1.1387 Y1.4645  
G01 X-1.1375 Y1.4708  
G01 X-1.1375 Y1.5292  
G01 X-1.1385 Y1.5344  
G01 X-1.0998 Y1.6013  
G01 X-0.8868 Y1.6708  
G01 X-0.8835 Y1.6675  
G01 X-0.8565 Y1.6675  
G01 X-0.8375 Y1.6865  
G01 X-0.8375 Y1.7135  
G01 X-0.8475 Y1.7235  
G01 X-0.8475 Y1.7907  
G01 X-0.8207 Y1.8175  
G01 X-0.8065 Y1.8175  
G01 X-0.7875 Y1.8365  
G01 X-0.7875 Y1.8507  
G01 X-0.6607 Y1.9775  
G01 X-0.4043 Y1.9775  
G01 X-0.3562 Y1.9294  
G01 X-0.3562 Y1.8668  
G01 X-0.3548 Y1.8598  
G01 X-0.3521 Y1.8532  
G01 X-0.3481 Y1.8472  
G01 X-0.3431 Y1.8422  
G01 X-0.3371 Y1.8382  
G01 X-0.3306 Y1.8355  
G01 X-0.3236 Y1.8341  
G01 X-0.3164 Y1.8341  
G01 X-0.3094 Y1.8355  
G01 X-0.3029 Y1.8382  
G01 X-0.2969 Y1.8422  
G01 X-0.2919 Y1.8472  
G01 X-0.2879 Y1.8532  
G01 X-0.2852 Y1.8598  
G01 X-0.2838 Y1.8668  
G01 X-0.2838 Y1.9332  
G01 X-0.2852 Y1.9402  
G01 X-0.2879 Y1.9468  
G01 X-0.2919 Y1.9528  
G01 X-0.2969 Y1.9578  
G01 X-0.3029 Y1.9618  
G01 X-0.3094 Y1.9645  
G01 X-0.3164 Y1.9659  
G01 X-0.3236 Y1.9659  
G01 X-0.3281 Y1.9650  
G01 X-0.3770 Y2.0138  
G01 X-0.3812 Y2.0180  
G01 X-0.3863 Y2.0210  
G01 X-0.3920 Y2.0225  
G01 X-0.6730 Y2.0225  
G01 X-0.6787 Y2.0210  
G01 X-0.6838 Y2.0180  
G01 X-0.8193 Y1.8825  
G01 X-0.8335 Y1.8825  
G01 X-0.8525 Y1.8635  
G01 X-0.8525 Y1.8493  
G01 X-0.8880 Y1.8138  
G01 X-0.8910 Y1.8087  
G01 X-0.8925 Y1.8030  
G01 X-0.8925 Y1.7235  
G01 X-0.9025 Y1.7135  
G01 X-0.9025 Y1.7131  
G01 X-1.1214 Y1.6416  
G01 X-1.1237 Y1.6410  
G01 X-1.1242 Y1.6407  
G01 X-1.1248 Y1.6405  
G01 X-1.1268 Y1.6392  
G01 X-1.1288 Y1.6380  
G01 X-1.1292 Y1.6376  
G01 X-1.1298 Y1.6372  
G01 X-1.1313 Y1.6355  
G01 X-1.1330 Y1.6338  
G01 X-1.1333 Y1.6333  
G01 X-1.1337 Y1.6328  
G01 X-1.1348 Y1.6307  
G01 X-1.1770 Y1.5577  
G01 X-1.1795 Y1.5573  
G01 X-1.1854 Y1.5548  
G01 X-1.1907 Y1.5512  
G01 X-1.1952 Y1.5467  
G01 X-1.1988 Y1.5414  
G01 X-1.2013 Y1.5355  
G01 X-1.2025 Y1.5292  
G01 X-1.2025 Y1.4993  
G01 X-1.2543 Y1.4475  
G01 X-1.2980 Y1.4475  
G01 X-1.3037 Y1.4460  
G01 X-1.3088 Y1.4430  
G01 X-1.3130 Y1.4388  
G01 X-1.3630 Y1.3888  
G01 X-1.3660 Y1.3837  
G01 X-1.3675 Y1.3780  
G01 X-1.3675 Y1.3220  
G01 X-1.3660 Y1.3163  
G01 X-1.3630 Y1.3112  
G01 X-1.3588 Y1.3070  
G01 X-1.3088 Y1.2570  
G01 X-1.3037 Y1.2540  
G01 X-1.2980 Y1.2525  
G01 X-1.1620 Y1.2525  
G01 X-1.1563 Y1.2540  
G01 X-1.1512 Y1.2570  
G01 X-1.1470 Y1.2612  
G01 X-1.1307 Y1.2775  
G01 X-1.0235 Y1.2775  
G01 X-1.0135 Y1.2675  
G01 X-0.9865 Y1.2675  
G01 X-0.9675 Y1.2865  
G01 X-0.9675 Y1.3135  
G01 X-0.9836 Y1.3296  
G01 X-0.8107 Y1.5025  
G01 X-0.7793 Y1.5025  
G01 X-0.7425 Y1.4657  
G01 X-0.7425 Y1.4343  
G01 X-0.7880 Y1.3888  
G01 X-0.7910 Y1.3837  
G01 X-0.7925 Y1.3780  
G01 X-0.7925 Y1.2720  
G01 X-0.7910 Y1.2663  
G01 X-0.7880 Y1.2612  
G01 X-0.7838 Y1.2570  
G01 X-0.7338 Y1.2070  
G01 X-0.7287 Y1.2040  
G01 X-0.7230 Y1.2025  
G01 X-0.6670 Y1.2025  
G01 X-0.6613 Y1.2040  
G01 X-0.6562 Y1.2070  
G01 X-0.6520 Y1.2112  
G01 X-0.6107 Y1.2525  
G01 X-0.5543 Y1.2525  
G01 X-0.3675 Y1.0657  
G01 X-0.3675 Y0.5843  
G01 X-0.3812 Y0.5706  
G01 X-0.6031 Y0.5223  
G01 X-0.6044 Y0.5223  
G01 X-0.6060 Y0.5217  
G01 X-0.6077 Y0.5214  
G01 X-0.6088 Y0.5208  
G01 X-0.6100 Y0.5204  
G01 X-0.6114 Y0.5194  
G01 X-0.6129 Y0.5186  
G01 X-0.6139 Y0.5178  
G01 X-0.6149 Y0.5171  
G01 X-0.6161 Y0.5158  
G01 X-0.6173 Y0.5147  
G01 X-0.6180 Y0.5136  
G01 X-0.7653 Y0.3466  
G01 X-0.7659 Y0.3462  
G01 X-0.7673 Y0.3444  
G01 X-0.7688 Y0.3427  
G01 X-0.7691 Y0.3421  
G01 X-0.7695 Y0.3416  
G01 X-0.7704 Y0.3394  
G01 X-0.7715 Y0.3374  
G01 X-0.7716 Y0.3367  
G01 X-0.8098 Y0.2475  
G01 X-0.9407 Y0.2475  
G01 X-1.0862 Y0.3930  
G01 X-1.0913 Y0.3960  
G01 X-1.0970 Y0.3975  
G01 X-1.1857 Y0.3975  
G01 X-1.2375 Y0.4493  
G01 X-1.2375 Y0.4635  
G01 X-1.2475 Y0.4735  
G01 X-1.2475 Y0.4907  
G01 X-1.0707 Y0.6675  
G01 X-1.0565 Y0.6675  
G01 X-1.0375 Y0.6865  
G01 X-1.0375 Y0.7135  
G01 X-1.0475 Y0.7235  
G01 X-1.0475 Y0.7530  
G01 X-1.0490 Y0.7587  
G01 X-1.0520 Y0.7638  
G01 X-1.1375 Y0.8493  
G01 X-1.1375 Y0.8635  
G01 X-1.1565 Y0.8825  
G01 X-1.1835 Y0.8825  
G01 X-1.1935 Y0.8725  
G01 X-1.3407 Y0.8725  
G01 X-1.4112 Y0.9430  
G01 X-1.4163 Y0.9460  
G01 X-1.4220 Y0.9475  
G01 X-1.6857 Y0.9475  
G01 X-1.8375 Y1.0993  
G01 X-1.8375 Y1.1135  
G01 X-1.8565 Y1.1325  
G01 X-1.8835 Y1.1325  
G01 X-1.9025 Y1.1135  
G01 X-1.9025 Y1.0865  
G01 X-1.8835 Y1.0675  
G01 X-1.8693 Y1.0675  
G01 X-1.7130 Y0.9112  
G01 X-1.7088 Y0.9070  
G01 X-1.7037 Y0.9040  
G01 X-1.6980 Y0.9025  
G01 X-1.4343 Y0.9025  
G01 X-1.3638 Y0.8320  
G01 X-1.3587 Y0.8290  
G01 X-1.3530 Y0.8275  
G01 X-1.1935 Y0.8275  
G01 X-1.1835 Y0.8175  
G01 X-1.1693 Y0.8175  
G01 X-1.0925 Y0.7407  
G01 X-1.0925 Y0.7235  
G01 X-1.1025 Y0.7135  
G01 X-1.1025 Y0.6993  
G01 X-1.2880 Y0.5138  
G01 X-1.2910 Y0.5087  
G01 X-1.2925 Y0.5030  
G01 X-1.2925 Y0.4735  
G01 X-1.3025 Y0.4635  
G01 X-1.3025 Y0.4365  
G01 X-1.2835 Y0.4175  
G01 X-1.2693 Y0.4175  
G01 X-1.2130 Y0.3612  
G01 X-1.2088 Y0.3570  
G01 X-1.2037 Y0.3540  
G01 X-1.1980 Y0.3525  
G01 X-1.1093 Y0.3525  
G01 X-0.9680 Y0.2112  
G01 X-0.9638 Y0.2070  
G01 X-0.9587 Y0.2040  
G01 X-0.9530 Y0.2025  
G01 X-0.7966 Y0.2025  
G01 X-0.7953 Y0.2023  
G01 X-0.7937 Y0.2025  
G01 X-0.7920 Y0.2025  
G01 X-0.7907 Y0.2028  
G01 X-0.7894 Y0.2030  
G01 X-0.7879 Y0.2036  
G01 X-0.7863 Y0.2040  
G01 X-0.7851 Y0.2047  
G01 X-0.7839 Y0.2052  
G01 X-0.7826 Y0.2062  
G01 X-0.7812 Y0.2070  
G01 X-0.7802 Y0.2080  
G01 X-0.7791 Y0.2088  
G01 X-0.7781 Y0.2100  
G01 X-0.7770 Y0.2112  
G01 X-0.7763 Y0.2124  
G01 X-0.7755 Y0.2134  
G01 X-0.7748 Y0.2149  
G01 X-0.7740 Y0.2163  
G01 X-0.7737 Y0.2176  
G01 X-0.7307 Y0.3178  
G01 X-0.5880 Y0.4796  
G01 X-0.3676 Y0.5275  
G01 X-0.3670 Y0.5275  
G01 X-0.3647 Y0.5281  
G01 X-0.3623 Y0.5286  
G01 X-0.3618 Y0.5289  
G01 X-0.3613 Y0.5290  
G01 X-0.3592 Y0.5302  
G01 X-0.3571 Y0.5314  
G01 X-0.3567 Y0.5317  
G01 X-0.3562 Y0.5320  
G01 X-0.3545 Y0.5337  
G01 X-0.3527 Y0.5353  
G00 Z0.0500  
G00 X-0.3948 Y0.6293  
G01 Z-0.0035 F10    
G01 X-0.3912 Y0.6346  F20    
G01 X-0.3887 Y0.6405  
G01 X-0.3875 Y0.6468  
G01 X-0.3875 Y0.6532  
G01 X-0.3887 Y0.6595  
G01 X-0.3912 Y0.6654  
G01 X-0.3948 Y0.6707  
G01 X-0.3975 Y0.6735  
G01 X-0.3975 Y0.9265  
G01 X-0.3875 Y0.9365  
G01 X-0.3875 Y0.9635  
G01 X-0.3975 Y0.9735  
G01 X-0.3975 Y1.0530  
G01 X-0.3990 Y1.0587  
G01 X-0.4020 Y1.0638  
G01 X-0.4175 Y1.0793  
G01 X-0.4175 Y1.1035  
G01 X-0.4365 Y1.1225  
G01 X-0.4635 Y1.1225  
G01 X-0.4825 Y1.1035  
G01 X-0.4825 Y1.0765  
G01 X-0.4635 Y1.0575  
G01 X-0.4593 Y1.0575  
G01 X-0.4425 Y1.0407  
G01 X-0.4425 Y0.9735  
G01 X-0.4525 Y0.9635  
G01 X-0.4525 Y0.9365  
G01 X-0.4425 Y0.9265  
G01 X-0.4425 Y0.6735  
G01 X-0.4452 Y0.6707  
G01 X-0.4488 Y0.6654  
G01 X-0.4504 Y0.6616  
G01 X-0.5546 Y0.6175  
G01 X-0.6299 Y0.6175  
G01 X-0.6494 Y0.6647  
G01 X-0.6475 Y0.6665  
G01 X-0.6475 Y0.6935  
G01 X-0.6665 Y0.7125  
G01 X-0.6935 Y0.7125  
G01 X-0.7035 Y0.7025  
G01 X-0.7192 Y0.7025  
G01 X-0.7375 Y0.7127  
G01 X-0.7375 Y0.7135  
G01 X-0.7565 Y0.7325  
G01 X-0.7835 Y0.7325  
G01 X-0.8025 Y0.7135  
G01 X-0.8025 Y0.6865  
G01 X-0.7835 Y0.6675  
G01 X-0.7565 Y0.6675  
G01 X-0.7538 Y0.6703  
G01 X-0.7361 Y0.6604  
G01 X-0.7337 Y0.6590  
G01 X-0.7335 Y0.6590  
G01 X-0.7333 Y0.6589  
G01 X-0.7306 Y0.6582  
G01 X-0.7280 Y0.6575  
G01 X-0.7278 Y0.6575  
G01 X-0.7276 Y0.6575  
G01 X-0.7248 Y0.6575  
G01 X-0.7035 Y0.6575  
G01 X-0.6935 Y0.6475  
G01 X-0.6910 Y0.6475  
G01 X-0.6664 Y0.5878  
G01 X-0.6660 Y0.5863  
G01 X-0.6652 Y0.5850  
G01 X-0.6647 Y0.5837  
G01 X-0.6638 Y0.5825  
G01 X-0.6630 Y0.5812  
G01 X-0.6620 Y0.5801  
G01 X-0.6611 Y0.5790  
G01 X-0.6599 Y0.5781  
G01 X-0.6588 Y0.5770  
G01 X-0.6575 Y0.5763  
G01 X-0.6564 Y0.5754  
G01 X-0.6550 Y0.5748  
G01 X-0.6537 Y0.5740  
G01 X-0.6523 Y0.5737  
G01 X-0.6509 Y0.5731  
G01 X-0.6494 Y0.5729  
G01 X-0.6480 Y0.5725  
G01 X-0.6465 Y0.5725  
G01 X-0.6450 Y0.5723  
G01 X-0.6435 Y0.5725  
G01 X-0.5514 Y0.5725  
G01 X-0.5498 Y0.5723  
G01 X-0.5484 Y0.5725  
G01 X-0.5470 Y0.5725  
G01 X-0.5455 Y0.5729  
G01 X-0.5440 Y0.5731  
G01 X-0.5427 Y0.5737  
G01 X-0.5413 Y0.5740  
G01 X-0.5400 Y0.5748  
G01 X-0.4328 Y0.6201  
G01 X-0.4295 Y0.6187  
G01 X-0.4232 Y0.6175  
G01 X-0.4168 Y0.6175  
G01 X-0.4105 Y0.6187  
G01 X-0.4046 Y0.6212  
G01 X-0.3993 Y0.6248  
G01 X-0.3948 Y0.6293  
G00 Z0.0500  
G00 X-0.5475 Y0.6665  
G01 Z-0.0035 F10    
G01 X-0.5475 Y0.6782  F20    
G01 X-0.5319 Y0.6916  
G01 X-0.5312 Y0.6920  
G01 X-0.5297 Y0.6935  
G01 X-0.5281 Y0.6948  
G01 X-0.5276 Y0.6956  
G01 X-0.5270 Y0.6962  
G01 X-0.5259 Y0.6980  
G01 X-0.5248 Y0.6997  
G01 X-0.5245 Y0.7006  
G01 X-0.5240 Y0.7013  
G01 X-0.5235 Y0.7033  
G01 X-0.5228 Y0.7053  
G01 X-0.5227 Y0.7062  
G01 X-0.5225 Y0.7070  
G01 X-0.5225 Y0.7091  
G01 X-0.5223 Y0.7112  
G01 X-0.5225 Y0.7121  
G01 X-0.5225 Y0.7978  
G01 X-0.5191 Y0.8150  
G01 X-0.5175 Y0.8165  
G01 X-0.5175 Y0.8227  
G01 X-0.5174 Y0.8234  
G01 X-0.5174 Y0.8235  
G01 X-0.5175 Y0.8257  
G01 X-0.5175 Y0.8435  
G01 X-0.5365 Y0.8625  
G01 X-0.5635 Y0.8625  
G01 X-0.5825 Y0.8435  
G01 X-0.5825 Y0.8165  
G01 X-0.5676 Y0.8017  
G01 X-0.5676 Y0.8015  
G01 X-0.5675 Y0.7993  
G01 X-0.5675 Y0.7203  
G01 X-0.5767 Y0.7125  
G01 X-0.5935 Y0.7125  
G01 X-0.6125 Y0.6935  
G01 X-0.6125 Y0.6665  
G01 X-0.5935 Y0.6475  
G01 X-0.5665 Y0.6475  
G01 X-0.5475 Y0.6665  
G00 Z0.0500  
G00 X-0.5975 Y0.7415  
G01 Z-0.0035 F10    
G01 X-0.5975 Y0.7685  F20    
G01 X-0.6165 Y0.7875  
G01 X-0.6265 Y0.7875  
G01 X-0.6683 Y0.8963  
G01 X-0.6686 Y0.8974  
G01 X-0.6694 Y0.8991  
G01 X-0.6701 Y0.9008  
G01 X-0.6707 Y0.9017  
G01 X-0.6879 Y0.9361  
G01 X-0.6875 Y0.9365  
G01 X-0.6875 Y0.9635  
G01 X-0.7065 Y0.9825  
G01 X-0.7207 Y0.9825  
G01 X-0.7257 Y0.9875  
G01 X-0.6557 Y1.0575  
G01 X-0.6365 Y1.0575  
G01 X-0.6175 Y1.0765  
G01 X-0.6175 Y1.1035  
G01 X-0.6261 Y1.1121  
G01 X-0.5607 Y1.1775  
G01 X-0.5565 Y1.1775  
G01 X-0.5375 Y1.1965  
G01 X-0.5375 Y1.2235  
G01 X-0.5565 Y1.2425  
G01 X-0.5835 Y1.2425  
G01 X-0.6025 Y1.2235  
G01 X-0.6025 Y1.1993  
G01 X-0.6843 Y1.1175  
G01 X-0.6849 Y1.1171  
G01 X-0.6864 Y1.1154  
G01 X-0.6880 Y1.1138  
G01 X-0.6883 Y1.1132  
G01 X-0.6888 Y1.1127  
G01 X-0.6898 Y1.1107  
G01 X-0.6910 Y1.1087  
G01 X-0.6911 Y1.1080  
G01 X-0.6914 Y1.1074  
G01 X-0.6919 Y1.1052  
G01 X-0.6925 Y1.1030  
G01 X-0.6925 Y1.1023  
G01 X-0.6926 Y1.1016  
G01 X-0.6925 Y1.0993  
G01 X-0.6925 Y1.0970  
G01 X-0.6923 Y1.0964  
G01 X-0.6923 Y1.0957  
G01 X-0.6916 Y1.0935  
G01 X-0.6910 Y1.0913  
G01 X-0.6906 Y1.0907  
G01 X-0.6904 Y1.0901  
G01 X-0.6891 Y1.0882  
G01 X-0.6890 Y1.0879  
G01 X-0.7543 Y1.0225  
G01 X-1.0875 Y1.0225  
G01 X-1.0875 Y1.0335  
G01 X-1.1065 Y1.0525  
G01 X-1.1335 Y1.0525  
G01 X-1.1525 Y1.0335  
G01 X-1.1525 Y1.0065  
G01 X-1.1423 Y0.9964  
G01 X-1.1410 Y0.9913  
G01 X-1.1380 Y0.9862  
G01 X-1.1338 Y0.9820  
G01 X-1.1287 Y0.9790  
G01 X-1.1230 Y0.9775  
G01 X-0.7793 Y0.9775  
G01 X-0.7525 Y0.9507  
G01 X-0.7525 Y0.9365  
G01 X-0.7335 Y0.9175  
G01 X-0.7289 Y0.9175  
G01 X-0.7106 Y0.8809  
G01 X-0.6625 Y0.7558  
G01 X-0.6625 Y0.7415  
G01 X-0.6435 Y0.7225  
G01 X-0.6165 Y0.7225  
G01 X-0.5975 Y0.7415  
G00 Z0.0500  
G00 X-0.6733 Y0.5452  
G01 Z-0.0035 F10    
G01 X-0.6786 Y0.5488  F20    
G01 X-0.6845 Y0.5513  
G01 X-0.6908 Y0.5525  
G01 X-0.7214 Y0.5525  
G01 X-1.1725 Y0.9846  
G01 X-1.1725 Y1.0407  
G01 X-1.0357 Y1.1775  
G01 X-0.9435 Y1.1775  
G01 X-0.9335 Y1.1675  
G01 X-0.9065 Y1.1675  
G01 X-0.8875 Y1.1865  
G01 X-0.8875 Y1.2135  
G01 X-0.8975 Y1.2235  
G01 X-0.8975 Y1.3157  
G01 X-0.7957 Y1.4175  
G01 X-0.7765 Y1.4175  
G01 X-0.7575 Y1.4365  
G01 X-0.7575 Y1.4635  
G01 X-0.7765 Y1.4825  
G01 X-0.8035 Y1.4825  
G01 X-0.8225 Y1.4635  
G01 X-0.8225 Y1.4543  
G01 X-0.9380 Y1.3388  
G01 X-0.9410 Y1.3337  
G01 X-0.9425 Y1.3280  
G01 X-0.9425 Y1.2235  
G01 X-0.9435 Y1.2225  
G01 X-1.0480 Y1.2225  
G01 X-1.0537 Y1.2210  
G01 X-1.0588 Y1.2180  
G01 X-1.0630 Y1.2138  
G01 X-1.2130 Y1.0638  
G01 X-1.2160 Y1.0587  
G01 X-1.2175 Y1.0530  
G01 X-1.2175 Y0.9777  
G01 X-1.2176 Y0.9775  
G01 X-1.2175 Y0.9748  
G01 X-1.2175 Y0.9720  
G01 X-1.2174 Y0.9718  
G01 X-1.2174 Y0.9716  
G01 X-1.2167 Y0.9689  
G01 X-1.2160 Y0.9663  
G01 X-1.2158 Y0.9661  
G01 X-1.2158 Y0.9659  
G01 X-1.2144 Y0.9635  
G01 X-1.2130 Y0.9612  
G01 X-1.2128 Y0.9610  
G01 X-1.2127 Y0.9608  
G01 X-1.2107 Y0.9589  
G01 X-1.2088 Y0.9570  
G01 X-1.2086 Y0.9569  
G01 X-0.7724 Y0.5390  
G01 X-0.7748 Y0.5354  
G01 X-0.7773 Y0.5295  
G01 X-0.7785 Y0.5232  
G01 X-0.7785 Y0.5168  
G01 X-0.7773 Y0.5105  
G01 X-0.7748 Y0.5046  
G01 X-0.7712 Y0.4993  
G01 X-0.7680 Y0.4960  
G01 X-0.7764 Y0.4855  
G01 X-0.7773 Y0.4847  
G01 X-0.7783 Y0.4832  
G01 X-0.7794 Y0.4817  
G01 X-0.7799 Y0.4807  
G01 X-0.8758 Y0.3325  
G01 X-0.8992 Y0.3325  
G01 X-0.9055 Y0.3313  
G01 X-0.9114 Y0.3288  
G01 X-0.9167 Y0.3252  
G01 X-0.9212 Y0.3207  
G01 X-0.9248 Y0.3154  
G01 X-0.9273 Y0.3095  
G01 X-0.9285 Y0.3032  
G01 X-0.9285 Y0.2968  
G01 X-0.9273 Y0.2905  
G01 X-0.9248 Y0.2846  
G01 X-0.9212 Y0.2793  
G01 X-0.9167 Y0.2748  
G01 X-0.9114 Y0.2712  
G01 X-0.9055 Y0.2687  
G01 X-0.8992 Y0.2675  
G01 X-0.8408 Y0.2675  
G01 X-0.8345 Y0.2687  
G01 X-0.8286 Y0.2712  
G01 X-0.8233 Y0.2748  
G01 X-0.8188 Y0.2793  
G01 X-0.8152 Y0.2846  
G01 X-0.8127 Y0.2905  
G01 X-0.8115 Y0.2968  
G01 X-0.8115 Y0.3032  
G01 X-0.8127 Y0.3095  
G01 X-0.8152 Y0.3154  
G01 X-0.8188 Y0.3207  
G01 X-0.8233 Y0.3252  
G01 X-0.8258 Y0.3269  
G01 X-0.7417 Y0.4568  
G01 X-0.7172 Y0.4875  
G01 X-0.6908 Y0.4875  
G01 X-0.6845 Y0.4887  
G01 X-0.6786 Y0.4912  
G01 X-0.6733 Y0.4948  
G01 X-0.6688 Y0.4993  
G01 X-0.6652 Y0.5046  
G01 X-0.6627 Y0.5105  
G01 X-0.6615 Y0.5168  
G01 X-0.6615 Y0.5232  
G01 X-0.6627 Y0.5295  
G01 X-0.6652 Y0.5354  
G01 X-0.6688 Y0.5407  
G01 X-0.6733 Y0.5452  
G00 Z0.0500  
G00 X-0.9733 Y0.5452  
G01 Z-0.0035 F10    
G01 X-0.9786 Y0.5488  F20    
G01 X-0.9845 Y0.5513  
G01 X-0.9908 Y0.5525  
G01 X-1.0492 Y0.5525  
G01 X-1.0555 Y0.5513  
G01 X-1.0614 Y0.5488  
G01 X-1.0667 Y0.5452  
G01 X-1.0712 Y0.5407  
G01 X-1.0748 Y0.5354  
G01 X-1.0773 Y0.5295  
G01 X-1.0785 Y0.5232  
G01 X-1.0785 Y0.5194  
G01 X-1.0968 Y0.5116  
G01 X-1.0974 Y0.5114  
G01 X-1.0995 Y0.5104  
G01 X-1.1016 Y0.5095  
G01 X-1.1021 Y0.5091  
G01 X-1.1561 Y0.4821  
G01 X-1.1565 Y0.4825  
G01 X-1.1835 Y0.4825  
G01 X-1.2025 Y0.4635  
G01 X-1.2025 Y0.4365  
G01 X-1.1835 Y0.4175  
G01 X-1.1565 Y0.4175  
G01 X-1.1375 Y0.4365  
G01 X-1.1375 Y0.4411  
G01 X-1.0805 Y0.4696  
G01 X-1.0387 Y0.4875  
G01 X-0.9908 Y0.4875  
G01 X-0.9845 Y0.4887  
G01 X-0.9786 Y0.4912  
G01 X-0.9733 Y0.4948  
G01 X-0.9688 Y0.4993  
G01 X-0.9652 Y0.5046  
G01 X-0.9627 Y0.5105  
G01 X-0.9615 Y0.5168  
G01 X-0.9615 Y0.5232  
G01 X-0.9627 Y0.5295  
G01 X-0.9652 Y0.5354  
G01 X-0.9688 Y0.5407  
G01 X-0.9733 Y0.5452  
G00 Z0.0500  
G00 X-1.1375 Y0.7365  
G01 Z-0.0035 F10    
G01 X-1.1375 Y0.7635  F20    
G01 X-1.1565 Y0.7825  
G01 X-1.1835 Y0.7825  
G01 X-1.1935 Y0.7725  
G01 X-1.2465 Y0.7725  
G01 X-1.2565 Y0.7825  
G01 X-1.2835 Y0.7825  
G01 X-1.2935 Y0.7725  
G01 X-1.2980 Y0.7725  
G01 X-1.3037 Y0.7710  
G01 X-1.3088 Y0.7680  
G01 X-1.3130 Y0.7638  
G01 X-1.3943 Y0.6825  
G01 X-1.4085 Y0.6825  
G01 X-1.4275 Y0.6635  
G01 X-1.4275 Y0.6365  
G01 X-1.4085 Y0.6175  
G01 X-1.3815 Y0.6175  
G01 X-1.3625 Y0.6365  
G01 X-1.3625 Y0.6507  
G01 X-1.2896 Y0.7236  
G01 X-1.2835 Y0.7175  
G01 X-1.2565 Y0.7175  
G01 X-1.2465 Y0.7275  
G01 X-1.1935 Y0.7275  
G01 X-1.1835 Y0.7175  
G01 X-1.1565 Y0.7175  
G01 X-1.1375 Y0.7365  
G00 Z0.0500  
G00 X-1.4475 Y0.7235  
G01 Z-0.0035 F10    
G01 X-1.4475 Y0.8265  F20    
G01 X-1.4375 Y0.8365  
G01 X-1.4375 Y0.8635  
G01 X-1.4565 Y0.8825  
G01 X-1.4835 Y0.8825  
G01 X-1.5025 Y0.8635  
G01 X-1.5025 Y0.8365  
G01 X-1.4925 Y0.8265  
G01 X-1.4925 Y0.8225  
G01 X-1.6875 Y0.8225  
G01 X-1.6875 Y0.8292  
G01 X-1.6887 Y0.8355  
G01 X-1.6912 Y0.8414  
G01 X-1.6948 Y0.8467  
G01 X-1.6993 Y0.8512  
G01 X-1.7046 Y0.8548  
G01 X-1.7105 Y0.8573  
G01 X-1.7168 Y0.8585  
G01 X-1.7232 Y0.8585  
G01 X-1.7295 Y0.8573  
G01 X-1.7354 Y0.8548  
G01 X-1.7407 Y0.8512  
G01 X-1.7452 Y0.8467  
G01 X-1.7488 Y0.8414  
G01 X-1.7513 Y0.8355  
G01 X-1.7525 Y0.8292  
G01 X-1.7525 Y0.7708  
G01 X-1.7513 Y0.7645  
G01 X-1.7488 Y0.7586  
G01 X-1.7452 Y0.7533  
G01 X-1.7407 Y0.7488  
G01 X-1.7354 Y0.7452  
G01 X-1.7295 Y0.7427  
G01 X-1.7232 Y0.7415  
G01 X-1.7168 Y0.7415  
G01 X-1.7105 Y0.7427  
G01 X-1.7046 Y0.7452  
G01 X-1.6993 Y0.7488  
G01 X-1.6948 Y0.7533  
G01 X-1.6912 Y0.7586  
G01 X-1.6887 Y0.7645  
G01 X-1.6875 Y0.7708  
G01 X-1.6875 Y0.7775  
G01 X-1.4925 Y0.7775  
G01 X-1.4925 Y0.7235  
G01 X-1.5025 Y0.7135  
G01 X-1.5025 Y0.6865  
G01 X-1.4835 Y0.6675  
G01 X-1.4565 Y0.6675  
G01 X-1.4375 Y0.6865  
G01 X-1.4375 Y0.7135  
G01 X-1.4475 Y0.7235  
G00 Z0.0500  
G00 X-1.4465 Y0.4225  
G01 Z-0.0035 F10    
G01 X-1.4735 Y0.4225  F20    
G01 X-1.6375 Y0.5084  
G01 X-1.6375 Y0.5135  
G01 X-1.6565 Y0.5325  
G01 X-1.6835 Y0.5325  
G01 X-1.7025 Y0.5135  
G01 X-1.7025 Y0.4865  
G01 X-1.6835 Y0.4675  
G01 X-1.6565 Y0.4675  
G01 X-1.5001 Y0.3856  
G01 X-1.5864 Y0.3125  
G01 X-1.6035 Y0.3125  
G01 X-1.6225 Y0.2935  
G01 X-1.6225 Y0.2665  
G01 X-1.6035 Y0.2475  
G01 X-1.5765 Y0.2475  
G01 X-1.5575 Y0.2665  
G01 X-1.5575 Y0.2780  
G01 X-1.4636 Y0.3575  
G01 X-1.4465 Y0.3575  
G01 X-1.4275 Y0.3765  
G01 X-1.4275 Y0.4035  
G01 X-1.4465 Y0.4225  
G00 Z0.0500  
G00 X-1.3225 Y0.2935  
G01 Z-0.0035 F10    
G01 X-1.3225 Y0.2665  F20    
G01 X-1.3035 Y0.2475  
G01 X-1.2765 Y0.2475  
G01 X-1.2622 Y0.2618  
G01 X-1.2098 Y0.2706  
G01 X-1.2055 Y0.2687  
G01 X-1.1992 Y0.2675  
G01 X-1.1408 Y0.2675  
G01 X-1.1345 Y0.2687  
G01 X-1.1286 Y0.2712  
G01 X-1.1233 Y0.2748  
G01 X-1.1188 Y0.2793  
G01 X-1.1152 Y0.2846  
G01 X-1.1127 Y0.2905  
G01 X-1.1115 Y0.2968  
G01 X-1.1115 Y0.3032  
G01 X-1.1127 Y0.3095  
G01 X-1.1152 Y0.3154  
G01 X-1.1188 Y0.3207  
G01 X-1.1233 Y0.3252  
G01 X-1.1286 Y0.3288  
G01 X-1.1345 Y0.3313  
G01 X-1.1408 Y0.3325  
G01 X-1.1992 Y0.3325  
G01 X-1.2055 Y0.3313  
G01 X-1.2114 Y0.3288  
G01 X-1.2167 Y0.3252  
G01 X-1.2212 Y0.3207  
G01 X-1.2248 Y0.3154  
G01 X-1.2256 Y0.3135  
G01 X-1.2702 Y0.3061  
G01 X-1.2765 Y0.3125  
G01 X-1.3035 Y0.3125  
G01 X-1.3225 Y0.2935  
G00 Z0.0500  
G00 X-1.7275 Y0.3765  
G01 Z-0.0035 F10    
G01 X-1.7275 Y0.4035  F20    
G01 X-1.7465 Y0.4225  
G01 X-1.7735 Y0.4225  
G01 X-1.7925 Y0.4035  
G01 X-1.7925 Y0.3954  
G01 X-1.8128 Y0.3818  
G01 X-1.8298 Y0.4100  
G01 X-1.8396 Y0.4345  
G01 X-1.8375 Y0.4365  
G01 X-1.8375 Y0.4635  
G01 X-1.8565 Y0.4825  
G01 X-1.8835 Y0.4825  
G01 X-1.9025 Y0.4635  
G01 X-1.9025 Y0.4365  
G01 X-1.8835 Y0.4175  
G01 X-1.8812 Y0.4175  
G01 X-1.8713 Y0.3927  
G01 X-1.8708 Y0.3910  
G01 X-1.8702 Y0.3900  
G01 X-1.8698 Y0.3889  
G01 X-1.8687 Y0.3874  
G01 X-1.8597 Y0.3725  
G01 X-1.8835 Y0.3725  
G01 X-1.9025 Y0.3535  
G01 X-1.9025 Y0.3265  
G01 X-1.8835 Y0.3075  
G01 X-1.8565 Y0.3075  
G01 X-1.8412 Y0.3228  
G01 X-1.8176 Y0.3275  
G01 X-1.8167 Y0.3276  
G01 X-1.8161 Y0.3277  
G01 X-1.8156 Y0.3277  
G01 X-1.8142 Y0.3282  
G01 X-1.8127 Y0.3285  
G01 X-1.8119 Y0.3289  
G01 X-1.8110 Y0.3292  
G01 X-1.8105 Y0.3295  
G01 X-1.8100 Y0.3296  
G01 X-1.8087 Y0.3305  
G01 X-1.8074 Y0.3311  
G01 X-1.8067 Y0.3318  
G01 X-1.8059 Y0.3322  
G01 X-1.8055 Y0.3326  
G01 X-1.7682 Y0.3575  
G01 X-1.7465 Y0.3575  
G01 X-1.7275 Y0.3765  
G00 Z0.0500  
G00 X-2.0475 Y0.3635  
G01 Z-0.0035 F10    
G01 X-2.0475 Y0.4265  F20    
G01 X-2.0375 Y0.4365  
G01 X-2.0375 Y0.4635  
G01 X-2.0475 Y0.4735  
G01 X-2.0475 Y0.5407  
G01 X-1.9812 Y0.6070  
G01 X-1.9770 Y0.6112  
G01 X-1.9740 Y0.6163  
G01 X-1.9725 Y0.6220  
G01 X-1.9725 Y1.0780  
G01 X-1.9740 Y1.0837  
G01 X-1.9770 Y1.0888  
G01 X-1.9875 Y1.0993  
G01 X-1.9875 Y1.1135  
G01 X-1.9975 Y1.1235  
G01 X-1.9975 Y1.1557  
G01 X-1.8562 Y1.2970  
G01 X-1.8520 Y1.3012  
G01 X-1.8490 Y1.3063  
G01 X-1.8475 Y1.3120  
G01 X-1.8475 Y1.3765  
G01 X-1.8375 Y1.3865  
G01 X-1.8375 Y1.4135  
G01 X-1.8475 Y1.4235  
G01 X-1.8475 Y1.5265  
G01 X-1.8375 Y1.5365  
G01 X-1.8375 Y1.5635  
G01 X-1.8565 Y1.5825  
G01 X-1.8835 Y1.5825  
G01 X-1.8935 Y1.5725  
G01 X-1.9965 Y1.5725  
G01 X-2.0065 Y1.5825  
G01 X-2.0335 Y1.5825  
G01 X-2.0525 Y1.5635  
G01 X-2.0525 Y1.5365  
G01 X-2.0335 Y1.5175  
G01 X-2.0065 Y1.5175  
G01 X-1.9965 Y1.5275  
G01 X-1.8935 Y1.5275  
G01 X-1.8925 Y1.5265  
G01 X-1.8925 Y1.4235  
G01 X-1.9025 Y1.4135  
G01 X-1.9025 Y1.3865  
G01 X-1.8925 Y1.3765  
G01 X-1.8925 Y1.3243  
G01 X-2.0380 Y1.1788  
G01 X-2.0410 Y1.1737  
G01 X-2.0425 Y1.1680  
G01 X-2.0425 Y1.1235  
G01 X-2.0525 Y1.1135  
G01 X-2.0525 Y1.0865  
G01 X-2.0335 Y1.0675  
G01 X-2.0193 Y1.0675  
G01 X-2.0175 Y1.0657  
G01 X-2.0175 Y0.6343  
G01 X-2.0880 Y0.5638  
G01 X-2.0910 Y0.5587  
G01 X-2.0925 Y0.5530  
G01 X-2.0925 Y0.4735  
G01 X-2.1025 Y0.4635  
G01 X-2.1025 Y0.4365  
G01 X-2.0925 Y0.4265  
G01 X-2.0925 Y0.3635  
G01 X-2.1025 Y0.3535  
G01 X-2.1025 Y0.3265  
G01 X-2.0835 Y0.3075  
G01 X-2.0565 Y0.3075  
G01 X-2.0375 Y0.3265  
G01 X-2.0375 Y0.3535  
G01 X-2.0475 Y0.3635  
G00 Z0.0500  
G00 X-2.0565 Y0.6175  
G01 Z-0.0035 F10    
G01 X-2.0375 Y0.6365  F20    
G01 X-2.0375 Y0.6635  
G01 X-2.0475 Y0.6735  
G01 X-2.0475 Y0.7765  
G01 X-2.0375 Y0.7865  
G01 X-2.0375 Y0.8135  
G01 X-2.0565 Y0.8325  
G01 X-2.0707 Y0.8325  
G01 X-2.0725 Y0.8343  
G01 X-2.0725 Y1.2957  
G01 X-2.0020 Y1.3662  
G01 X-1.9990 Y1.3713  
G01 X-1.9977 Y1.3764  
G01 X-1.9875 Y1.3865  
G01 X-1.9875 Y1.4135  
G01 X-2.0065 Y1.4325  
G01 X-2.0207 Y1.4325  
G01 X-2.0436 Y1.4554  
G01 X-2.0375 Y1.4615  
G01 X-2.0375 Y1.4885  
G01 X-2.0565 Y1.5075  
G01 X-2.0835 Y1.5075  
G01 X-2.1025 Y1.4885  
G01 X-2.1025 Y1.4615  
G01 X-2.0925 Y1.4515  
G01 X-2.0925 Y1.4470  
G01 X-2.0910 Y1.4413  
G01 X-2.0880 Y1.4362  
G01 X-2.0838 Y1.4320  
G01 X-2.0525 Y1.4007  
G01 X-2.0525 Y1.3865  
G01 X-2.0489 Y1.3829  
G01 X-2.1088 Y1.3230  
G01 X-2.1130 Y1.3188  
G01 X-2.1160 Y1.3137  
G01 X-2.1175 Y1.3080  
G01 X-2.1175 Y0.8220  
G01 X-2.1160 Y0.8163  
G01 X-2.1130 Y0.8112  
G01 X-2.1025 Y0.8007  
G01 X-2.1025 Y0.7865  
G01 X-2.0925 Y0.7765  
G01 X-2.0925 Y0.6735  
G01 X-2.1025 Y0.6635  
G01 X-2.1025 Y0.6365  
G01 X-2.0835 Y0.6175  
G01 X-2.0565 Y0.6175  
G00 Z0.0500  
G00 X-1.8835 Y0.6175  
G01 Z-0.0035 F10    
G01 X-1.8565 Y0.6175  F20    
G01 X-1.8375 Y0.6365  
G01 X-1.8375 Y0.6635  
G01 X-1.8475 Y0.6735  
G01 X-1.8475 Y0.7765  
G01 X-1.8375 Y0.7865  
G01 X-1.8375 Y0.8135  
G01 X-1.8475 Y0.8235  
G01 X-1.8475 Y0.9265  
G01 X-1.8375 Y0.9365  
G01 X-1.8375 Y0.9635  
G01 X-1.8565 Y0.9825  
G01 X-1.8835 Y0.9825  
G01 X-1.9025 Y0.9635  
G01 X-1.9025 Y0.9365  
G01 X-1.8925 Y0.9265  
G01 X-1.8925 Y0.8235  
G01 X-1.9025 Y0.8135  
G01 X-1.9025 Y0.7865  
G01 X-1.8925 Y0.7765  
G01 X-1.8925 Y0.6735  
G01 X-1.9025 Y0.6635  
G01 X-1.9025 Y0.6365  
G01 X-1.8835 Y0.6175  
G00 Z0.0500  
G00 X-1.7407 Y1.0488  
G01 Z-0.0035 F10    
G01 X-1.7354 Y1.0452  F20    
G01 X-1.7295 Y1.0427  
G01 X-1.7232 Y1.0415  
G01 X-1.7168 Y1.0415  
G01 X-1.7105 Y1.0427  
G01 X-1.7046 Y1.0452  
G01 X-1.6993 Y1.0488  
G01 X-1.6948 Y1.0533  
G01 X-1.6912 Y1.0586  
G01 X-1.6887 Y1.0645  
G01 X-1.6875 Y1.0708  
G01 X-1.6875 Y1.1007  
G01 X-1.6312 Y1.1570  
G01 X-1.6270 Y1.1612  
G01 X-1.6207 Y1.1675  
G01 X-1.6065 Y1.1675  
G01 X-1.5875 Y1.1865  
G01 X-1.5875 Y1.2135  
G01 X-1.6065 Y1.2325  
G01 X-1.6335 Y1.2325  
G01 X-1.6521 Y1.2139  
G01 X-1.6875 Y1.2493  
G01 X-1.6875 Y1.2635  
G01 X-1.7065 Y1.2825  
G01 X-1.7335 Y1.2825  
G01 X-1.7525 Y1.2635  
G01 X-1.7525 Y1.2365  
G01 X-1.7335 Y1.2175  
G01 X-1.7193 Y1.2175  
G01 X-1.6768 Y1.1750  
G01 X-1.7001 Y1.1518  
G01 X-1.7046 Y1.1548  
G01 X-1.7105 Y1.1573  
G01 X-1.7168 Y1.1585  
G01 X-1.7232 Y1.1585  
G01 X-1.7295 Y1.1573  
G01 X-1.7354 Y1.1548  
G01 X-1.7407 Y1.1512  
G01 X-1.7452 Y1.1467  
G01 X-1.7488 Y1.1414  
G01 X-1.7513 Y1.1355  
G01 X-1.7525 Y1.1292  
G01 X-1.7525 Y1.0708  
G01 X-1.7513 Y1.0645  
G01 X-1.7488 Y1.0586  
G01 X-1.7452 Y1.0533  
G01 X-1.7407 Y1.0488  
G00 Z0.0500  
G00 X-1.3525 Y1.0335  
G01 Z-0.0035 F10    
G01 X-1.3525 Y1.0065  F20    
G01 X-1.3335 Y0.9875  
G01 X-1.3065 Y0.9875  
G01 X-1.2875 Y1.0065  
G01 X-1.2875 Y1.0335  
G01 X-1.2975 Y1.0435  
G01 X-1.2975 Y1.1030  
G01 X-1.2990 Y1.1087  
G01 X-1.3020 Y1.1138  
G01 X-1.6225 Y1.4343  
G01 X-1.6225 Y1.8157  
G01 X-1.5707 Y1.8675  
G01 X-1.5565 Y1.8675  
G01 X-1.5375 Y1.8865  
G01 X-1.5375 Y1.9007  
G01 X-1.5207 Y1.9175  
G01 X-1.5065 Y1.9175  
G01 X-1.4875 Y1.9365  
G01 X-1.4875 Y1.9635  
G01 X-1.5065 Y1.9825  
G01 X-1.5335 Y1.9825  
G01 X-1.5525 Y1.9635  
G01 X-1.5525 Y1.9493  
G01 X-1.5693 Y1.9325  
G01 X-1.5835 Y1.9325  
G01 X-1.6025 Y1.9135  
G01 X-1.6025 Y1.8993  
G01 X-1.6588 Y1.8430  
G01 X-1.6630 Y1.8388  
G01 X-1.6660 Y1.8337  
G01 X-1.6675 Y1.8280  
G01 X-1.6675 Y1.4220  
G01 X-1.6660 Y1.4163  
G01 X-1.6630 Y1.4112  
G01 X-1.6588 Y1.4070  
G01 X-1.3425 Y1.0907  
G01 X-1.3425 Y1.0435  
G01 X-1.3525 Y1.0335  
G00 Z0.0500  
G00 X-1.3335 Y1.1675  
G01 Z-0.0035 F10    
G01 X-1.3065 Y1.1675  F20    
G01 X-1.2875 Y1.1865  
G01 X-1.2875 Y1.2135  
G01 X-1.3065 Y1.2325  
G01 X-1.3207 Y1.2325  
G01 X-1.4375 Y1.3493  
G01 X-1.4375 Y1.3635  
G01 X-1.4565 Y1.3825  
G01 X-1.4707 Y1.3825  
G01 X-1.5475 Y1.4593  
G01 X-1.5475 Y1.4965  
G01 X-1.5375 Y1.5065  
G01 X-1.5375 Y1.5335  
G01 X-1.5565 Y1.5525  
G01 X-1.5835 Y1.5525  
G01 X-1.6025 Y1.5335  
G01 X-1.6025 Y1.5065  
G01 X-1.5925 Y1.4965  
G01 X-1.5925 Y1.4470  
G01 X-1.5910 Y1.4413  
G01 X-1.5880 Y1.4362  
G01 X-1.5025 Y1.3507  
G01 X-1.5025 Y1.3365  
G01 X-1.4835 Y1.3175  
G01 X-1.4693 Y1.3175  
G01 X-1.3525 Y1.2007  
G01 X-1.3525 Y1.1865  
G01 X-1.3335 Y1.1675  
G00 Z0.0500  
G00 X-1.3025 Y1.3365  
G01 Z-0.0035 F10    
G01 X-1.2835 Y1.3175  F20    
G01 X-1.2565 Y1.3175  
G01 X-1.2465 Y1.3275  
G01 X-1.1920 Y1.3275  
G01 X-1.1863 Y1.3290  
G01 X-1.1812 Y1.3320  
G01 X-1.0717 Y1.4415  
G01 X-1.0668 Y1.4415  
G01 X-1.0605 Y1.4427  
G01 X-1.0546 Y1.4452  
G01 X-1.0493 Y1.4488  
G01 X-1.0448 Y1.4533  
G01 X-1.0412 Y1.4586  
G01 X-1.0387 Y1.4645  
G01 X-1.0375 Y1.4708  
G01 X-1.0375 Y1.5292  
G01 X-1.0387 Y1.5355  
G01 X-1.0412 Y1.5414  
G01 X-1.0448 Y1.5467  
G01 X-1.0493 Y1.5512  
G01 X-1.0546 Y1.5548  
G01 X-1.0605 Y1.5573  
G01 X-1.0668 Y1.5585  
G01 X-1.0732 Y1.5585  
G01 X-1.0795 Y1.5573  
G01 X-1.0854 Y1.5548  
G01 X-1.0907 Y1.5512  
G01 X-1.0952 Y1.5467  
G01 X-1.0988 Y1.5414  
G01 X-1.1013 Y1.5355  
G01 X-1.1025 Y1.5292  
G01 X-1.1025 Y1.4743  
G01 X-1.2043 Y1.3725  
G01 X-1.2465 Y1.3725  
G01 X-1.2565 Y1.3825  
G01 X-1.2835 Y1.3825  
G01 X-1.3025 Y1.3635  
G01 X-1.3025 Y1.3365  
G00 Z0.0500  
G00 X-1.2835 Y1.4875  
G01 Z-0.0035 F10    
G01 X-1.2565 Y1.4875  F20    
G01 X-1.2375 Y1.5065  
G01 X-1.2375 Y1.5335  
G01 X-1.2475 Y1.5435  
G01 X-1.2475 Y1.5965  
G01 X-1.2375 Y1.6065  
G01 X-1.2375 Y1.6335  
G01 X-1.2565 Y1.6525  
G01 X-1.2831 Y1.6525  
G01 X-1.3875 Y1.7291  
G01 X-1.3875 Y1.7385  
G01 X-1.4065 Y1.7575  
G01 X-1.4335 Y1.7575  
G01 X-1.4525 Y1.7385  
G01 X-1.4525 Y1.7115  
G01 X-1.4335 Y1.6925  
G01 X-1.4137 Y1.6925  
G01 X-1.3025 Y1.6109  
G01 X-1.3025 Y1.6065  
G01 X-1.2925 Y1.5965  
G01 X-1.2925 Y1.5435  
G01 X-1.3025 Y1.5335  
G01 X-1.3025 Y1.5065  
G01 X-1.2835 Y1.4875  
G00 Z0.0500  
G00 X-1.2025 Y1.6865  
G01 Z-0.0035 F10    
G01 X-1.1835 Y1.6675  F20    
G01 X-1.1565 Y1.6675  
G01 X-1.1375 Y1.6865  
G01 X-1.1375 Y1.7007  
G01 X-1.0207 Y1.8175  
G01 X-1.0065 Y1.8175  
G01 X-0.9875 Y1.8365  
G01 X-0.9875 Y1.8474  
G01 X-0.8643 Y1.9475  
G01 X-0.8465 Y1.9475  
G01 X-0.8275 Y1.9665  
G01 X-0.8275 Y1.9935  
G01 X-0.8465 Y2.0125  
G01 X-0.8735 Y2.0125  
G01 X-0.8925 Y1.9935  
G01 X-0.8925 Y1.9826  
G01 X-1.0157 Y1.8825  
G01 X-1.0335 Y1.8825  
G01 X-1.0525 Y1.8635  
G01 X-1.0525 Y1.8493  
G01 X-1.1693 Y1.7325  
G01 X-1.1835 Y1.7325  
G01 X-1.1839 Y1.7321  
G01 X-1.3375 Y1.8089  
G01 X-1.3375 Y1.8135  
G01 X-1.3565 Y1.8325  
G01 X-1.3835 Y1.8325  
G01 X-1.4025 Y1.8135  
G01 X-1.4025 Y1.7865  
G01 X-1.3835 Y1.7675  
G01 X-1.3565 Y1.7675  
G01 X-1.3561 Y1.7679  
G01 X-1.2025 Y1.6911  
G01 X-1.2025 Y1.6865  
G00 Z0.0500  
G00 X-1.2065 Y1.9175  
G01 Z-0.0035 F10    
G01 X-1.1916 Y1.9324  F20    
G01 X-1.0794 Y1.9535  
G01 X-1.0735 Y1.9475  
G01 X-1.0465 Y1.9475  
G01 X-1.0275 Y1.9665  
G01 X-1.0275 Y1.9935  
G01 X-1.0465 Y2.0125  
G01 X-1.0735 Y2.0125  
G01 X-1.0884 Y1.9976  
G01 X-1.2006 Y1.9765  
G01 X-1.2065 Y1.9825  
G01 X-1.2335 Y1.9825  
G01 X-1.2525 Y1.9635  
G01 X-1.2525 Y1.9365  
G01 X-1.2335 Y1.9175  
G01 X-1.2065 Y1.9175  
G00 Z0.0500  
G00 X-0.9952 Y1.5467  
G01 Z-0.0035 F10    
G01 X-0.9988 Y1.5414  F20    
G01 X-1.0013 Y1.5355  
G01 X-1.0025 Y1.5292  
G01 X-1.0025 Y1.4708  
G01 X-1.0013 Y1.4645  
G01 X-0.9988 Y1.4586  
G01 X-0.9952 Y1.4533  
G01 X-0.9907 Y1.4488  
G01 X-0.9854 Y1.4452  
G01 X-0.9795 Y1.4427  
G01 X-0.9732 Y1.4415  
G01 X-0.9668 Y1.4415  
G01 X-0.9605 Y1.4427  
G01 X-0.9546 Y1.4452  
G01 X-0.9493 Y1.4488  
G01 X-0.9448 Y1.4533  
G01 X-0.9412 Y1.4586  
G01 X-0.9387 Y1.4645  
G01 X-0.9375 Y1.4708  
G01 X-0.9375 Y1.4775  
G01 X-0.9370 Y1.4775  
G01 X-0.9313 Y1.4790  
G01 X-0.9262 Y1.4820  
G01 X-0.8457 Y1.5625  
G01 X-0.7346 Y1.5625  
G01 X-0.7051 Y1.5498  
G01 X-0.7037 Y1.5490  
G01 X-0.7024 Y1.5487  
G01 X-0.7011 Y1.5482  
G01 X-0.6995 Y1.5479  
G01 X-0.6980 Y1.5475  
G01 X-0.6966 Y1.5475  
G01 X-0.6953 Y1.5473  
G01 X-0.6937 Y1.5475  
G01 X-0.6455 Y1.5475  
G01 X-0.6431 Y1.5474  
G01 X-0.6426 Y1.5475  
G01 X-0.6420 Y1.5475  
G01 X-0.6397 Y1.5481  
G01 X-0.6373 Y1.5487  
G01 X-0.6368 Y1.5489  
G01 X-0.6363 Y1.5490  
G01 X-0.6342 Y1.5503  
G01 X-0.6320 Y1.5514  
G01 X-0.6316 Y1.5517  
G01 X-0.6312 Y1.5520  
G01 X-0.6295 Y1.5537  
G01 X-0.4066 Y1.7567  
G01 X-0.4062 Y1.7570  
G01 X-0.4045 Y1.7587  
G01 X-0.4027 Y1.7604  
G01 X-0.4024 Y1.7608  
G01 X-0.4020 Y1.7612  
G01 X-0.4008 Y1.7633  
G01 X-0.3995 Y1.7654  
G01 X-0.3993 Y1.7659  
G01 X-0.3990 Y1.7663  
G01 X-0.3984 Y1.7687  
G01 X-0.3977 Y1.7710  
G01 X-0.3976 Y1.7715  
G01 X-0.3975 Y1.7720  
G01 X-0.3975 Y1.7745  
G01 X-0.3974 Y1.7769  
G01 X-0.3975 Y1.7774  
G01 X-0.3975 Y1.8418  
G01 X-0.3969 Y1.8422  
G01 X-0.3919 Y1.8472  
G01 X-0.3879 Y1.8532  
G01 X-0.3852 Y1.8598  
G01 X-0.3838 Y1.8668  
G01 X-0.3838 Y1.9332  
G01 X-0.3852 Y1.9402  
G01 X-0.3879 Y1.9468  
G01 X-0.3919 Y1.9528  
G01 X-0.3969 Y1.9578  
G01 X-0.4029 Y1.9618  
G01 X-0.4094 Y1.9645  
G01 X-0.4164 Y1.9659  
G01 X-0.4236 Y1.9659  
G01 X-0.4306 Y1.9645  
G01 X-0.4371 Y1.9618  
G01 X-0.4431 Y1.9578  
G01 X-0.4481 Y1.9528  
G01 X-0.4521 Y1.9468  
G01 X-0.4548 Y1.9402  
G01 X-0.4562 Y1.9332  
G01 X-0.4562 Y1.8668  
G01 X-0.4548 Y1.8598  
G01 X-0.4521 Y1.8532  
G01 X-0.4481 Y1.8472  
G01 X-0.4431 Y1.8422  
G01 X-0.4425 Y1.8418  
G01 X-0.4425 Y1.7849  
G01 X-0.6537 Y1.5925  
G01 X-0.6904 Y1.5925  
G01 X-0.7199 Y1.6052  
G01 X-0.7213 Y1.6060  
G01 X-0.7226 Y1.6063  
G01 X-0.7239 Y1.6068  
G01 X-0.7255 Y1.6071  
G01 X-0.7270 Y1.6075  
G01 X-0.7284 Y1.6075  
G01 X-0.7297 Y1.6077  
G01 X-0.7313 Y1.6075  
G01 X-0.8580 Y1.6075  
G01 X-0.8637 Y1.6060  
G01 X-0.8688 Y1.6030  
G01 X-0.8730 Y1.5988  
G01 X-0.9383 Y1.5335  
G01 X-0.9387 Y1.5355  
G01 X-0.9412 Y1.5414  
G01 X-0.9448 Y1.5467  
G01 X-0.9493 Y1.5512  
G01 X-0.9546 Y1.5548  
G01 X-0.9605 Y1.5573  
G01 X-0.9668 Y1.5585  
G01 X-0.9732 Y1.5585  
G01 X-0.9795 Y1.5573  
G01 X-0.9854 Y1.5548  
G01 X-0.9907 Y1.5512  
G01 X-0.9952 Y1.5467  
G00 Z0.0500  
G00 X-0.6835 Y1.6275  
G01 Z-0.0035 F10    
G01 X-0.6565 Y1.6275  F20    
G01 X-0.6375 Y1.6465  
G01 X-0.6375 Y1.6735  
G01 X-0.6475 Y1.6835  
G01 X-0.6475 Y1.7407  
G01 X-0.5445 Y1.8437  
G01 X-0.5431 Y1.8422  
G01 X-0.5371 Y1.8382  
G01 X-0.5306 Y1.8355  
G01 X-0.5236 Y1.8341  
G01 X-0.5164 Y1.8341  
G01 X-0.5094 Y1.8355  
G01 X-0.5029 Y1.8382  
G01 X-0.4969 Y1.8422  
G01 X-0.4919 Y1.8472  
G01 X-0.4879 Y1.8532  
G01 X-0.4852 Y1.8598  
G01 X-0.4838 Y1.8668  
G01 X-0.4838 Y1.9332  
G01 X-0.4852 Y1.9402  
G01 X-0.4879 Y1.9468  
G01 X-0.4919 Y1.9528  
G01 X-0.4969 Y1.9578  
G01 X-0.5029 Y1.9618  
G01 X-0.5094 Y1.9645  
G01 X-0.5164 Y1.9659  
G01 X-0.5236 Y1.9659  
G01 X-0.5306 Y1.9645  
G01 X-0.5371 Y1.9618  
G01 X-0.5431 Y1.9578  
G01 X-0.5481 Y1.9528  
G01 X-0.5521 Y1.9468  
G01 X-0.5548 Y1.9402  
G01 X-0.5562 Y1.9332  
G01 X-0.5562 Y1.8956  
G01 X-0.6880 Y1.7638  
G01 X-0.6910 Y1.7587  
G01 X-0.6925 Y1.7530  
G01 X-0.6925 Y1.6835  
G01 X-0.7025 Y1.6735  
G01 X-0.7025 Y1.6465  
G01 X-0.6835 Y1.6275  
G00 Z0.0500  
G00 X-0.6225 Y1.4635  
G01 Z-0.0035 F10    
G01 X-0.6225 Y1.4543  F20    
G01 X-0.7130 Y1.3638  
G01 X-0.7160 Y1.3587  
G01 X-0.7175 Y1.3530  
G01 X-0.7175 Y1.3285  
G01 X-0.7325 Y1.3135  
G01 X-0.7325 Y1.2865  
G01 X-0.7135 Y1.2675  
G01 X-0.6865 Y1.2675  
G01 X-0.6675 Y1.2865  
G01 X-0.6675 Y1.3135  
G01 X-0.6725 Y1.3185  
G01 X-0.6725 Y1.3407  
G01 X-0.5957 Y1.4175  
G01 X-0.5765 Y1.4175  
G01 X-0.5737 Y1.4203  
G01 X-0.4825 Y1.3877  
G01 X-0.4825 Y1.3865  
G01 X-0.4635 Y1.3675  
G01 X-0.4365 Y1.3675  
G01 X-0.4175 Y1.3865  
G01 X-0.4175 Y1.4135  
G01 X-0.4365 Y1.4325  
G01 X-0.4635 Y1.4325  
G01 X-0.4663 Y1.4297  
G01 X-0.5575 Y1.4623  
G01 X-0.5575 Y1.4635  
G01 X-0.5765 Y1.4825  
G01 X-0.6035 Y1.4825  
G01 X-0.6225 Y1.4635  
G00 Z0.0500  
G00 X-0.4325 Y1.4615  
G01 Z-0.0035 F10    
G01 X-0.4135 Y1.4425  F20    
G01 X-0.3865 Y1.4425  
G01 X-0.3675 Y1.4615  
G01 X-0.3675 Y1.4885  
G01 X-0.3702 Y1.4911  
G01 X-0.3598 Y1.5196  
G01 X-0.3588 Y1.5224  
G01 X-0.3578 Y1.5251  
G01 X-0.3578 Y1.5252  
G01 X-0.3578 Y1.5253  
G01 X-0.3576 Y1.5282  
G01 X-0.3573 Y1.5310  
G01 X-0.3573 Y1.5311  
G01 X-0.3494 Y1.6347  
G01 X-0.3375 Y1.6465  
G01 X-0.3375 Y1.6735  
G01 X-0.3565 Y1.6925  
G01 X-0.3835 Y1.6925  
G01 X-0.4025 Y1.6735  
G01 X-0.4025 Y1.6465  
G01 X-0.3942 Y1.6383  
G01 X-0.4022 Y1.5348  
G01 X-0.4121 Y1.5075  
G01 X-0.4135 Y1.5075  
G01 X-0.4325 Y1.4885  
G01 X-0.4325 Y1.4615  
G00 Z0.0500  
G00 X-1.8375 Y1.7365  
G01 Z-0.0035 F10    
G01 X-1.8375 Y1.7635  F20    
G01 X-1.8475 Y1.7735  
G01 X-1.8475 Y1.8765  
G01 X-1.8375 Y1.8865  
G01 X-1.8375 Y1.9135  
G01 X-1.8565 Y1.9325  
G01 X-1.8835 Y1.9325  
G01 X-1.9025 Y1.9135  
G01 X-1.9025 Y1.8865  
G01 X-1.8925 Y1.8765  
G01 X-1.8925 Y1.7735  
G01 X-1.9025 Y1.7635  
G01 X-1.9025 Y1.7365  
G01 X-1.8835 Y1.7175  
G01 X-1.8565 Y1.7175  
G01 X-1.8375 Y1.7365  
G00 Z0.0500  
G00 X-0.0546 Y0.1994  
G01 Z-0.0035 F10    
G01 X-0.0492 Y0.2067  F20    
G01 X-0.0451 Y0.2148  
G01 X-0.0423 Y0.2234  
G01 X-0.0409 Y0.2323  
G01 X-0.0409 Y0.3378  
G01 X-0.0389 Y0.3391  
G01 X-0.0370 Y0.3404  
G01 X-0.0352 Y0.3416  
G01 X-0.0350 Y0.3417  
G01 X-0.0334 Y0.3433  
G01 X-0.0319 Y0.3449  
G01 X-0.0317 Y0.3450  
G01 X-0.0305 Y0.3469  
G01 X-0.0293 Y0.3487  
G01 X-0.0292 Y0.3489  
G01 X-0.0283 Y0.3509  
G01 X-0.0275 Y0.3530  
G01 X-0.0274 Y0.3531  
G01 X-0.0270 Y0.3553  
G01 X-0.0265 Y0.3575  
G01 X-0.0265 Y0.3577  
G01 X-0.0265 Y0.3599  
G01 X-0.0265 Y0.3621  
G01 X-0.0265 Y1.9999  
G01 X-0.0265 Y2.0020  
G01 X-0.0265 Y2.0022  
G01 X-0.0265 Y2.0023  
G01 X-0.0269 Y2.0044  
G01 X-0.0273 Y2.0066  
G01 X-0.0274 Y2.0067  
G01 X-0.0274 Y2.0069  
G01 X-0.0282 Y2.0089  
G01 X-0.0474 Y2.0567  
G01 X-0.0474 Y2.0569  
G01 X-0.0482 Y2.0589  
G01 X-0.0490 Y2.0609  
G01 X-0.0491 Y2.0610  
G01 X-0.0492 Y2.0611  
G01 X-0.0504 Y2.0629  
G01 X-0.0516 Y2.0648  
G01 X-0.0517 Y2.0649  
G01 X-0.0517 Y2.0650  
G01 X-0.0533 Y2.0665  
G01 X-0.0548 Y2.0681  
G01 X-0.0549 Y2.0682  
G01 X-0.0550 Y2.0683  
G01 X-0.0568 Y2.0695  
G01 X-0.0586 Y2.0707  
G01 X-0.0587 Y2.0707  
G01 X-0.0589 Y2.0708  
G01 X-0.0609 Y2.0717  
G01 X-0.0629 Y2.0725  
G01 X-0.0630 Y2.0725  
G01 X-0.0631 Y2.0726  
G01 X-0.0653 Y2.0730  
G01 X-0.0674 Y2.0735  
G01 X-0.0675 Y2.0735  
G01 X-0.0677 Y2.0735  
G01 X-0.0699 Y2.0735  
G01 X-0.0720 Y2.0735  
G01 X-0.0722 Y2.0735  
G01 X-0.1723 Y2.0735  
G01 X-0.1769 Y2.0726  
G01 X-0.1811 Y2.0708  
G01 X-0.1850 Y2.0683  
G01 X-0.2350 Y2.0183  
G01 X-0.2383 Y2.0150  
G01 X-0.2408 Y2.0111  
G01 X-0.2426 Y2.0069  
G01 X-0.2435 Y2.0023  
G01 X-0.2435 Y1.9817  
G01 X-0.3517 Y2.0900  
G01 X-0.3550 Y2.0933  
G01 X-0.3589 Y2.0958  
G01 X-0.3631 Y2.0976  
G01 X-0.3677 Y2.0985  
G01 X-1.3473 Y2.0985  
G01 X-1.3519 Y2.0976  
G01 X-1.3561 Y2.0958  
G01 X-1.3600 Y2.0933  
G01 X-1.4450 Y2.0082  
G01 X-1.4767 Y2.0400  
G01 X-1.4800 Y2.0433  
G01 X-1.4839 Y2.0458  
G01 X-1.4881 Y2.0476  
G01 X-1.4927 Y2.0485  
G01 X-1.5473 Y2.0485  
G01 X-1.5519 Y2.0476  
G01 X-1.5561 Y2.0458  
G01 X-1.5600 Y2.0433  
G01 X-1.8100 Y1.7933  
G01 X-1.8133 Y1.7900  
G01 X-1.8158 Y1.7861  
G01 X-1.8176 Y1.7819  
G01 X-1.8185 Y1.7773  
G01 X-1.8185 Y1.6663  
G01 X-2.1058 Y1.6385  
G01 X-2.1066 Y1.6386  
G01 X-2.1081 Y1.6383  
G01 X-2.1096 Y1.6382  
G01 X-2.1104 Y1.6379  
G01 X-2.1112 Y1.6378  
G01 X-2.1126 Y1.6373  
G01 X-2.1140 Y1.6368  
G01 X-2.1147 Y1.6364  
G01 X-2.1155 Y1.6362  
G01 X-2.1168 Y1.6354  
G01 X-2.1181 Y1.6347  
G01 X-2.1187 Y1.6341  
G01 X-2.1194 Y1.6337  
G01 X-2.1205 Y1.6327  
G01 X-2.1217 Y1.6317  
G01 X-2.1222 Y1.6311  
G01 X-2.1228 Y1.6305  
G01 X-2.1237 Y1.6293  
G01 X-2.1246 Y1.6282  
G01 X-2.1250 Y1.6274  
G01 X-2.1255 Y1.6268  
G01 X-2.1261 Y1.6254  
G01 X-2.1268 Y1.6241  
G01 X-2.1270 Y1.6233  
G01 X-2.1274 Y1.6225  
G01 X-2.1277 Y1.6211  
G01 X-2.1282 Y1.6196  
G01 X-2.1282 Y1.6188  
G01 X-2.1371 Y1.5802  
G01 X-2.1535 Y1.5639  
G01 X-2.1535 Y1.5497  
G01 X-2.1883 Y1.5150  
G01 X-2.1908 Y1.5111  
G01 X-2.1926 Y1.5069  
G01 X-2.1935 Y1.5023  
G01 X-2.1935 Y0.9739  
G01 X-2.2035 Y0.9639  
G01 X-2.2035 Y0.9361  
G01 X-2.1839 Y0.9165  
G01 X-2.1561 Y0.9165  
G01 X-2.1365 Y0.9361  
G01 X-2.1365 Y0.9639  
G01 X-2.1465 Y0.9739  
G01 X-2.1465 Y1.4903  
G01 X-2.1203 Y1.5165  
G01 X-2.1061 Y1.5165  
G01 X-2.0865 Y1.5361  
G01 X-2.0865 Y1.5639  
G01 X-2.0915 Y1.5689  
G01 X-2.0859 Y1.5932  
G01 X-1.8086 Y1.6201  
G01 X-1.7435 Y1.4943  
G01 X-1.7435 Y1.4739  
G01 X-1.7535 Y1.4639  
G01 X-1.7535 Y1.4361  
G01 X-1.7435 Y1.4261  
G01 X-1.7435 Y1.4227  
G01 X-1.7426 Y1.4181  
G01 X-1.7408 Y1.4139  
G01 X-1.7383 Y1.4100  
G01 X-1.7350 Y1.4067  
G01 X-1.7157 Y1.3875  
G01 X-1.9633 Y1.1400  
G01 X-1.9658 Y1.1361  
G01 X-1.9676 Y1.1319  
G01 X-1.9685 Y1.1273  
G01 X-1.9685 Y0.6227  
G01 X-1.9676 Y0.6181  
G01 X-1.9658 Y0.6139  
G01 X-1.9633 Y0.6100  
G01 X-1.9100 Y0.5567  
G01 X-1.9061 Y0.5542  
G01 X-1.9019 Y0.5524  
G01 X-1.8973 Y0.5515  
G01 X-1.8427 Y0.5515  
G01 X-1.8381 Y0.5524  
G01 X-1.8339 Y0.5542  
G01 X-1.8300 Y0.5567  
G01 X-1.8267 Y0.5600  
G01 X-1.8103 Y0.5765  
G01 X-1.4939 Y0.5765  
G01 X-1.4839 Y0.5665  
G01 X-1.4697 Y0.5665  
G01 X-1.4035 Y0.5003  
G01 X-1.4035 Y0.4861  
G01 X-1.3839 Y0.4665  
G01 X-1.3561 Y0.4665  
G01 X-1.3365 Y0.4861  
G01 X-1.3365 Y0.5139  
G01 X-1.3561 Y0.5335  
G01 X-1.3703 Y0.5335  
G01 X-1.4365 Y0.5997  
G01 X-1.4365 Y0.6139  
G01 X-1.4561 Y0.6335  
G01 X-1.4839 Y0.6335  
G01 X-1.4939 Y0.6235  
G01 X-1.8223 Y0.6235  
G01 X-1.8269 Y0.6226  
G01 X-1.8311 Y0.6208  
G01 X-1.8350 Y0.6183  
G01 X-1.8547 Y0.5985  
G01 X-1.8853 Y0.5985  
G01 X-1.9215 Y0.6347  
G01 X-1.9215 Y1.1153  
G01 X-1.6853 Y1.3515  
G01 X-1.6797 Y1.3515  
G01 X-1.5685 Y1.2403  
G01 X-1.5685 Y1.1503  
G01 X-1.5686 Y1.1483  
G01 X-1.5685 Y1.1480  
G01 X-1.5685 Y1.1477  
G01 X-1.5681 Y1.1457  
G01 X-1.5678 Y1.1437  
G01 X-1.5677 Y1.1434  
G01 X-1.5676 Y1.1431  
G01 X-1.5668 Y1.1413  
G01 X-1.5661 Y1.1394  
G01 X-1.5659 Y1.1391  
G01 X-1.5658 Y1.1389  
G01 X-1.5647 Y1.1372  
G01 X-1.5636 Y1.1355  
G01 X-1.5634 Y1.1353  
G01 X-1.5633 Y1.1350  
G01 X-1.5618 Y1.1336  
G01 X-1.3734 Y0.9353  
G01 X-1.3733 Y0.9350  
G01 X-1.3718 Y0.9336  
G01 X-1.3704 Y0.9321  
G01 X-1.3702 Y0.9320  
G01 X-1.3700 Y0.9317  
G01 X-1.3683 Y0.9306  
G01 X-1.3667 Y0.9295  
G01 X-1.3664 Y0.9293  
G01 X-1.3661 Y0.9292  
G01 X-1.3643 Y0.9284  
G01 X-1.3624 Y0.9276  
G01 X-1.3621 Y0.9275  
G01 X-1.3619 Y0.9274  
G01 X-1.3599 Y0.9270  
G01 X-1.3579 Y0.9266  
G01 X-1.3576 Y0.9266  
G01 X-1.3573 Y0.9265  
G01 X-1.3553 Y0.9265  
G01 X-1.3533 Y0.9264  
G01 X-1.3530 Y0.9265  
G01 X-1.2927 Y0.9265  
G01 X-1.2881 Y0.9274  
G01 X-1.2839 Y0.9292  
G01 X-1.2800 Y0.9317  
G01 X-1.2767 Y0.9350  
G01 X-1.2267 Y0.9850  
G01 X-1.2242 Y0.9889  
G01 X-1.2224 Y0.9931  
G01 X-1.2215 Y0.9977  
G01 X-1.2215 Y1.1353  
G01 X-1.2017 Y1.1550  
G01 X-1.1992 Y1.1589  
G01 X-1.1974 Y1.1631  
G01 X-1.1965 Y1.1677  
G01 X-1.1965 Y1.1761  
G01 X-1.1865 Y1.1861  
G01 X-1.1865 Y1.2139  
G01 X-1.2061 Y1.2335  
G01 X-1.2339 Y1.2335  
G01 X-1.2535 Y1.2139  
G01 X-1.2535 Y1.1861  
G01 X-1.2453 Y1.1779  
G01 X-1.2600 Y1.1633  
G01 X-1.2633 Y1.1600  
G01 X-1.2658 Y1.1561  
G01 X-1.2676 Y1.1519  
G01 X-1.2685 Y1.1473  
G01 X-1.2685 Y1.0097  
G01 X-1.3047 Y0.9735  
G01 X-1.3449 Y0.9735  
G01 X-1.5215 Y1.1594  
G01 X-1.5215 Y1.2523  
G01 X-1.5224 Y1.2569  
G01 X-1.5242 Y1.2611  
G01 X-1.5267 Y1.2650  
G01 X-1.6550 Y1.3933  
G01 X-1.6922 Y1.4304  
G01 X-1.6865 Y1.4361  
G01 X-1.6865 Y1.4639  
G01 X-1.6965 Y1.4739  
G01 X-1.6965 Y1.4987  
G01 X-1.6964 Y1.4997  
G01 X-1.6965 Y1.5010  
G01 X-1.6965 Y1.5023  
G01 X-1.6967 Y1.5033  
G01 X-1.6968 Y1.5043  
G01 X-1.6971 Y1.5056  
G01 X-1.6974 Y1.5069  
G01 X-1.6978 Y1.5078  
G01 X-1.6981 Y1.5087  
G01 X-1.6987 Y1.5099  
G01 X-1.6992 Y1.5111  
G01 X-1.6997 Y1.5120  
G01 X-1.7715 Y1.6507  
G01 X-1.7715 Y1.7653  
G01 X-1.5353 Y2.0015  
G01 X-1.5047 Y2.0015  
G01 X-1.4685 Y1.9653  
G01 X-1.4685 Y1.9347  
G01 X-1.4883 Y1.9150  
G01 X-1.4908 Y1.9111  
G01 X-1.4926 Y1.9069  
G01 X-1.4935 Y1.9023  
G01 X-1.4935 Y1.8239  
G01 X-1.5035 Y1.8139  
G01 X-1.5035 Y1.7997  
G01 X-1.5850 Y1.7183  
G01 X-1.5883 Y1.7150  
G01 X-1.5908 Y1.7111  
G01 X-1.5926 Y1.7069  
G01 X-1.5935 Y1.7023  
G01 X-1.5935 Y1.6439  
G01 X-1.6035 Y1.6339  
G01 X-1.6035 Y1.6061  
G01 X-1.5839 Y1.5865  
G01 X-1.5561 Y1.5865  
G01 X-1.5365 Y1.6061  
G01 X-1.5365 Y1.6339  
G01 X-1.5465 Y1.6439  
G01 X-1.5465 Y1.6903  
G01 X-1.4703 Y1.7665  
G01 X-1.4561 Y1.7665  
G01 X-1.4365 Y1.7861  
G01 X-1.4365 Y1.8139  
G01 X-1.4465 Y1.8239  
G01 X-1.4465 Y1.8903  
G01 X-1.4300 Y1.9067  
G01 X-1.4267 Y1.9100  
G01 X-1.4242 Y1.9139  
G01 X-1.4224 Y1.9181  
G01 X-1.4215 Y1.9227  
G01 X-1.4215 Y1.9653  
G01 X-1.3353 Y2.0515  
G01 X-0.3797 Y2.0515  
G01 X-0.2572 Y1.9290  
G01 X-0.2572 Y1.8667  
G01 X-0.2558 Y1.8595  
G01 X-0.2530 Y1.8527  
G01 X-0.2489 Y1.8466  
G01 X-0.2437 Y1.8414  
G01 X-0.2435 Y1.8413  
G01 X-0.2435 Y1.5342  
G01 X-0.3364 Y1.4335  
G01 X-0.3639 Y1.4335  
G01 X-0.3835 Y1.4139  
G01 X-0.3835 Y1.3861  
G01 X-0.3639 Y1.3665  
G01 X-0.3537 Y1.3665  
G01 X-0.2974 Y1.2299  
G01 X-0.3035 Y1.2239  
G01 X-0.3035 Y1.1961  
G01 X-0.2839 Y1.1765  
G01 X-0.2797 Y1.1765  
G01 X-0.2685 Y1.1653  
G01 X-0.2685 Y0.8589  
G01 X-0.2835 Y0.8439  
G01 X-0.2835 Y0.8161  
G01 X-0.2639 Y0.7965  
G01 X-0.2361 Y0.7965  
G01 X-0.2165 Y0.8161  
G01 X-0.2165 Y0.8439  
G01 X-0.2215 Y0.8489  
G01 X-0.2215 Y0.8494  
G01 X-0.2214 Y0.8512  
G01 X-0.2215 Y0.8517  
G01 X-0.2215 Y1.1773  
G01 X-0.2224 Y1.1819  
G01 X-0.2242 Y1.1861  
G01 X-0.2267 Y1.1900  
G01 X-0.2365 Y1.1997  
G01 X-0.2365 Y1.2239  
G01 X-0.2495 Y1.2368  
G01 X-0.3126 Y1.3901  
G01 X-0.2031 Y1.5087  
G01 X-0.2017 Y1.5100  
G01 X-0.2015 Y1.5104  
G01 X-0.2012 Y1.5108  
G01 X-0.2002 Y1.5123  
G01 X-0.1992 Y1.5139  
G01 X-0.1990 Y1.5143  
G01 X-0.1987 Y1.5147  
G01 X-0.1981 Y1.5164  
G01 X-0.1974 Y1.5181  
G01 X-0.1973 Y1.5186  
G01 X-0.1971 Y1.5191  
G01 X-0.1969 Y1.5209  
G01 X-0.1965 Y1.5227  
G01 X-0.1965 Y1.5232  
G01 X-0.1964 Y1.5236  
G01 X-0.1965 Y1.5255  
G01 X-0.1965 Y1.8413  
G01 X-0.1963 Y1.8414  
G01 X-0.1911 Y1.8466  
G01 X-0.1870 Y1.8527  
G01 X-0.1842 Y1.8595  
G01 X-0.1828 Y1.8667  
G01 X-0.1828 Y1.9333  
G01 X-0.1842 Y1.9405  
G01 X-0.1870 Y1.9473  
G01 X-0.1911 Y1.9534  
G01 X-0.1963 Y1.9586  
G01 X-0.1965 Y1.9587  
G01 X-0.1965 Y1.9903  
G01 X-0.1603 Y2.0265  
G01 X-0.0859 Y2.0265  
G01 X-0.0735 Y1.9955  
G01 X-0.0735 Y0.3887  
G01 X-0.0764 Y0.3901  
G01 X-0.0850 Y0.3929  
G01 X-0.0939 Y0.3944  
G01 X-0.1030 Y0.3944  
G01 X-0.1119 Y0.3929  
G01 X-0.1205 Y0.3901  
G01 X-0.1286 Y0.3860  
G01 X-0.1359 Y0.3807  
G01 X-0.1423 Y0.3743  
G01 X-0.1476 Y0.3670  
G01 X-0.1517 Y0.3589  
G01 X-0.1545 Y0.3503  
G01 X-0.1559 Y0.3414  
G01 X-0.1559 Y0.2323  
G01 X-0.1545 Y0.2234  
G01 X-0.1517 Y0.2148  
G01 X-0.1476 Y0.2067  
G01 X-0.1423 Y0.1994  
G01 X-0.1359 Y0.1930  
G01 X-0.1286 Y0.1877  
G01 X-0.1205 Y0.1836  
G01 X-0.1119 Y0.1808  
G01 X-0.1030 Y0.1794  
G01 X-0.0939 Y0.1794  
G01 X-0.0850 Y0.1808  
G01 X-0.0764 Y0.1836  
G01 X-0.0683 Y0.1877  
G01 X-0.0610 Y0.1930  
G01 X-0.0546 Y0.1994  
G00 Z0.0500  
G00 X-0.1536 Y0.4330  
G01 Z-0.0035 F10    
G01 X-0.1531 Y0.4336  F20    
G01 X-0.1526 Y0.4340  
G01 X-0.1516 Y0.4353  
G01 X-0.1506 Y0.4366  
G01 X-0.1502 Y0.4372  
G01 X-0.1217 Y0.4752  
G01 X-0.1207 Y0.4764  
G01 X-0.1203 Y0.4771  
G01 X-0.1198 Y0.4778  
G01 X-0.1192 Y0.4791  
G01 X-0.1184 Y0.4804  
G01 X-0.1182 Y0.4812  
G01 X-0.1178 Y0.4819  
G01 X-0.1174 Y0.4834  
G01 X-0.0980 Y0.5418  
G01 X-0.0974 Y0.5431  
G01 X-0.0972 Y0.5440  
G01 X-0.0970 Y0.5448  
G01 X-0.0968 Y0.5462  
G01 X-0.0965 Y0.5477  
G01 X-0.0965 Y0.5485  
G01 X-0.0964 Y0.5494  
G01 X-0.0965 Y0.5508  
G01 X-0.0965 Y1.8413  
G01 X-0.0963 Y1.8414  
G01 X-0.0911 Y1.8466  
G01 X-0.0870 Y1.8527  
G01 X-0.0842 Y1.8595  
G01 X-0.0828 Y1.8667  
G01 X-0.0828 Y1.9333  
G01 X-0.0842 Y1.9405  
G01 X-0.0870 Y1.9473  
G01 X-0.0911 Y1.9534  
G01 X-0.0963 Y1.9586  
G01 X-0.1024 Y1.9626  
G01 X-0.1092 Y1.9654  
G01 X-0.1163 Y1.9669  
G01 X-0.1237 Y1.9669  
G01 X-0.1308 Y1.9654  
G01 X-0.1376 Y1.9626  
G01 X-0.1437 Y1.9586  
G01 X-0.1489 Y1.9534  
G01 X-0.1530 Y1.9473  
G01 X-0.1558 Y1.9405  
G01 X-0.1572 Y1.9333  
G01 X-0.1572 Y1.8667  
G01 X-0.1558 Y1.8595  
G01 X-0.1530 Y1.8527  
G01 X-0.1489 Y1.8466  
G01 X-0.1437 Y1.8414  
G01 X-0.1435 Y1.8413  
G01 X-0.1435 Y0.5538  
G01 X-0.1611 Y0.5010  
G01 X-0.1870 Y0.4665  
G01 X-0.4253 Y0.2776  
G01 X-0.4263 Y0.2769  
G01 X-0.4271 Y0.2761  
G01 X-0.4279 Y0.2755  
G01 X-0.4287 Y0.2745  
G01 X-0.4296 Y0.2736  
G01 X-0.4302 Y0.2728  
G01 X-0.4309 Y0.2720  
G01 X-0.4315 Y0.2709  
G01 X-0.5208 Y0.1396  
G01 X-0.5860 Y0.1396  
G01 X-0.5950 Y0.1382  
G01 X-0.6036 Y0.1354  
G01 X-0.6116 Y0.1313  
G01 X-0.6190 Y0.1260  
G01 X-0.6254 Y0.1196  
G01 X-0.6307 Y0.1123  
G01 X-0.6348 Y0.1042  
G01 X-0.6376 Y0.0956  
G01 X-0.6390 Y0.0867  
G01 X-0.6390 Y0.0776  
G01 X-0.6376 Y0.0687  
G01 X-0.6348 Y0.0601  
G01 X-0.6307 Y0.0520  
G01 X-0.6254 Y0.0447  
G01 X-0.6190 Y0.0383  
G01 X-0.6116 Y0.0329  
G01 X-0.6036 Y0.0288  
G01 X-0.5950 Y0.0260  
G01 X-0.5860 Y0.0246  
G01 X-0.4770 Y0.0246  
G01 X-0.4680 Y0.0260  
G01 X-0.4594 Y0.0288  
G01 X-0.4514 Y0.0329  
G01 X-0.4440 Y0.0383  
G01 X-0.4376 Y0.0447  
G01 X-0.4323 Y0.0520  
G01 X-0.4282 Y0.0601  
G01 X-0.4254 Y0.0687  
G01 X-0.4240 Y0.0776  
G01 X-0.4240 Y0.0867  
G01 X-0.4254 Y0.0956  
G01 X-0.4282 Y0.1042  
G01 X-0.4323 Y0.1123  
G01 X-0.4376 Y0.1196  
G01 X-0.4440 Y0.1260  
G01 X-0.4514 Y0.1313  
G01 X-0.4594 Y0.1354  
G01 X-0.4655 Y0.1374  
G01 X-0.3941 Y0.2423  
G01 X-0.1567 Y0.4306  
G01 X-0.1560 Y0.4310  
G01 X-0.1548 Y0.4320  
G01 X-0.1536 Y0.4330  
G00 Z0.0500  
G00 X-0.2646 Y0.4921  
G01 Z-0.0035 F10    
G01 X-0.2633 Y0.4935  F20    
G01 X-0.2619 Y0.4948  
G01 X-0.2617 Y0.4951  
G01 X-0.2614 Y0.4954  
G01 X-0.2604 Y0.4970  
G01 X-0.2593 Y0.4986  
G01 X-0.2592 Y0.4990  
G01 X-0.2589 Y0.4993  
G01 X-0.2582 Y0.5011  
G01 X-0.2088 Y0.6165  
G01 X-0.2061 Y0.6165  
G01 X-0.1865 Y0.6361  
G01 X-0.1865 Y0.6639  
G01 X-0.2061 Y0.6835  
G01 X-0.2339 Y0.6835  
G01 X-0.2535 Y0.6639  
G01 X-0.2535 Y0.6361  
G01 X-0.2521 Y0.6347  
G01 X-0.2990 Y0.5254  
G01 X-0.5607 Y0.3422  
G01 X-0.5620 Y0.3503  
G01 X-0.5648 Y0.3589  
G01 X-0.5689 Y0.3670  
G01 X-0.5743 Y0.3743  
G01 X-0.5807 Y0.3807  
G01 X-0.5880 Y0.3860  
G01 X-0.5960 Y0.3901  
G01 X-0.6046 Y0.3929  
G01 X-0.6136 Y0.3944  
G01 X-0.6226 Y0.3944  
G01 X-0.6316 Y0.3929  
G01 X-0.6402 Y0.3901  
G01 X-0.6482 Y0.3860  
G01 X-0.6556 Y0.3807  
G01 X-0.6620 Y0.3743  
G01 X-0.6673 Y0.3670  
G01 X-0.6714 Y0.3589  
G01 X-0.6742 Y0.3503  
G01 X-0.6756 Y0.3414  
G01 X-0.6756 Y0.2323  
G01 X-0.6742 Y0.2234  
G01 X-0.6714 Y0.2148  
G01 X-0.6673 Y0.2067  
G01 X-0.6620 Y0.1994  
G01 X-0.6556 Y0.1930  
G01 X-0.6482 Y0.1877  
G01 X-0.6402 Y0.1836  
G01 X-0.6316 Y0.1808  
G01 X-0.6226 Y0.1794  
G01 X-0.6136 Y0.1794  
G01 X-0.6046 Y0.1808  
G01 X-0.5960 Y0.1836  
G01 X-0.5880 Y0.1877  
G01 X-0.5807 Y0.1930  
G01 X-0.5743 Y0.1994  
G01 X-0.5689 Y0.2067  
G01 X-0.5648 Y0.2148  
G01 X-0.5620 Y0.2234  
G01 X-0.5606 Y0.2323  
G01 X-0.5606 Y0.2849  
G01 X-0.2668 Y0.4905  
G01 X-0.2652 Y0.4916  
G01 X-0.2650 Y0.4918  
G01 X-0.2646 Y0.4921  
G00 Z0.0500  
G00 X-0.3547 Y0.5320  
G01 Z-0.0035 F10    
G01 X-0.3532 Y0.5335  F20    
G01 X-0.3300 Y0.5567  
G01 X-0.3267 Y0.5600  
G01 X-0.3242 Y0.5639  
G01 X-0.3224 Y0.5681  
G01 X-0.3215 Y0.5727  
G01 X-0.3215 Y1.0773  
G01 X-0.3224 Y1.0819  
G01 X-0.3242 Y1.0861  
G01 X-0.3267 Y1.0900  
G01 X-0.5267 Y1.2900  
G01 X-0.5300 Y1.2933  
G01 X-0.5339 Y1.2958  
G01 X-0.5381 Y1.2976  
G01 X-0.5427 Y1.2985  
G01 X-0.6223 Y1.2985  
G01 X-0.6269 Y1.2976  
G01 X-0.6311 Y1.2958  
G01 X-0.6350 Y1.2933  
G01 X-0.6797 Y1.2485  
G01 X-0.7103 Y1.2485  
G01 X-0.7465 Y1.2847  
G01 X-0.7465 Y1.3653  
G01 X-0.7050 Y1.4067  
G01 X-0.7017 Y1.4100  
G01 X-0.6992 Y1.4139  
G01 X-0.6974 Y1.4181  
G01 X-0.6965 Y1.4227  
G01 X-0.6965 Y1.4773  
G01 X-0.6974 Y1.4819  
G01 X-0.6992 Y1.4861  
G01 X-0.7017 Y1.4900  
G01 X-0.7050 Y1.4933  
G01 X-0.7517 Y1.5400  
G01 X-0.7550 Y1.5433  
G01 X-0.7589 Y1.5458  
G01 X-0.7631 Y1.5476  
G01 X-0.7677 Y1.5485  
G01 X-0.8223 Y1.5485  
G01 X-0.8269 Y1.5476  
G01 X-0.8311 Y1.5458  
G01 X-0.8350 Y1.5433  
G01 X-1.0547 Y1.3235  
G01 X-1.1423 Y1.3235  
G01 X-1.1469 Y1.3226  
G01 X-1.1511 Y1.3208  
G01 X-1.1550 Y1.3183  
G01 X-1.1747 Y1.2985  
G01 X-1.2853 Y1.2985  
G01 X-1.3215 Y1.3347  
G01 X-1.3215 Y1.3653  
G01 X-1.2853 Y1.4015  
G01 X-1.2427 Y1.4015  
G01 X-1.2381 Y1.4024  
G01 X-1.2339 Y1.4042  
G01 X-1.2300 Y1.4067  
G01 X-1.1898 Y1.4470  
G01 X-1.1859 Y1.4443  
G01 X-1.1798 Y1.4418  
G01 X-1.1733 Y1.4405  
G01 X-1.1667 Y1.4405  
G01 X-1.1602 Y1.4418  
G01 X-1.1541 Y1.4443  
G01 X-1.1486 Y1.4480  
G01 X-1.1440 Y1.4526  
G01 X-1.1403 Y1.4581  
G01 X-1.1378 Y1.4642  
G01 X-1.1365 Y1.4707  
G01 X-1.1365 Y1.5293  
G01 X-1.1375 Y1.5343  
G01 X-1.0992 Y1.6004  
G01 X-0.8871 Y1.6697  
G01 X-0.8839 Y1.6665  
G01 X-0.8561 Y1.6665  
G01 X-0.8365 Y1.6861  
G01 X-0.8365 Y1.7139  
G01 X-0.8465 Y1.7239  
G01 X-0.8465 Y1.7903  
G01 X-0.8203 Y1.8165  
G01 X-0.8061 Y1.8165  
G01 X-0.7865 Y1.8361  
G01 X-0.7865 Y1.8503  
G01 X-0.6603 Y1.9765  
G01 X-0.4047 Y1.9765  
G01 X-0.3572 Y1.9290  
G01 X-0.3572 Y1.8667  
G01 X-0.3558 Y1.8595  
G01 X-0.3530 Y1.8527  
G01 X-0.3489 Y1.8466  
G01 X-0.3437 Y1.8414  
G01 X-0.3376 Y1.8374  
G01 X-0.3308 Y1.8346  
G01 X-0.3237 Y1.8331  
G01 X-0.3163 Y1.8331  
G01 X-0.3092 Y1.8346  
G01 X-0.3024 Y1.8374  
G01 X-0.2963 Y1.8414  
G01 X-0.2911 Y1.8466  
G01 X-0.2870 Y1.8527  
G01 X-0.2842 Y1.8595  
G01 X-0.2828 Y1.8667  
G01 X-0.2828 Y1.9333  
G01 X-0.2842 Y1.9405  
G01 X-0.2870 Y1.9473  
G01 X-0.2911 Y1.9534  
G01 X-0.2963 Y1.9586  
G01 X-0.3024 Y1.9626  
G01 X-0.3092 Y1.9654  
G01 X-0.3163 Y1.9669  
G01 X-0.3237 Y1.9669  
G01 X-0.3278 Y1.9660  
G01 X-0.3767 Y2.0150  
G01 X-0.3800 Y2.0183  
G01 X-0.3839 Y2.0208  
G01 X-0.3881 Y2.0226  
G01 X-0.3927 Y2.0235  
G01 X-0.6723 Y2.0235  
G01 X-0.6769 Y2.0226  
G01 X-0.6811 Y2.0208  
G01 X-0.6850 Y2.0183  
G01 X-0.8197 Y1.8835  
G01 X-0.8339 Y1.8835  
G01 X-0.8535 Y1.8639  
G01 X-0.8535 Y1.8497  
G01 X-0.8883 Y1.8150  
G01 X-0.8908 Y1.8111  
G01 X-0.8926 Y1.8069  
G01 X-0.8935 Y1.8023  
G01 X-0.8935 Y1.7239  
G01 X-0.9035 Y1.7139  
G01 X-1.1217 Y1.6425  
G01 X-1.1233 Y1.6421  
G01 X-1.1239 Y1.6418  
G01 X-1.1245 Y1.6416  
G01 X-1.1259 Y1.6408  
G01 X-1.1274 Y1.6401  
G01 X-1.1280 Y1.6397  
G01 X-1.1285 Y1.6394  
G01 X-1.1298 Y1.6383  
G01 X-1.1311 Y1.6373  
G01 X-1.1316 Y1.6368  
G01 X-1.1320 Y1.6363  
G01 X-1.1331 Y1.6350  
G01 X-1.1342 Y1.6338  
G01 X-1.1345 Y1.6332  
G01 X-1.1349 Y1.6327  
G01 X-1.1357 Y1.6312  
G01 X-1.1777 Y1.5586  
G01 X-1.1798 Y1.5582  
G01 X-1.1859 Y1.5557  
G01 X-1.1914 Y1.5520  
G01 X-1.1960 Y1.5474  
G01 X-1.1997 Y1.5419  
G01 X-1.2022 Y1.5358  
G01 X-1.2035 Y1.5293  
G01 X-1.2035 Y1.4997  
G01 X-1.2547 Y1.4485  
G01 X-1.2973 Y1.4485  
G01 X-1.3019 Y1.4476  
G01 X-1.3061 Y1.4458  
G01 X-1.3100 Y1.4433  
G01 X-1.3133 Y1.4400  
G01 X-1.3633 Y1.3900  
G01 X-1.3658 Y1.3861  
G01 X-1.3676 Y1.3819  
G01 X-1.3685 Y1.3773  
G01 X-1.3685 Y1.3227  
G01 X-1.3676 Y1.3181  
G01 X-1.3658 Y1.3139  
G01 X-1.3633 Y1.3100  
G01 X-1.3600 Y1.3067  
G01 X-1.3100 Y1.2567  
G01 X-1.3061 Y1.2542  
G01 X-1.3019 Y1.2524  
G01 X-1.2973 Y1.2515  
G01 X-1.1627 Y1.2515  
G01 X-1.1581 Y1.2524  
G01 X-1.1539 Y1.2542  
G01 X-1.1500 Y1.2567  
G01 X-1.1467 Y1.2600  
G01 X-1.1303 Y1.2765  
G01 X-1.0239 Y1.2765  
G01 X-1.0139 Y1.2665  
G01 X-0.9861 Y1.2665  
G01 X-0.9665 Y1.2861  
G01 X-0.9665 Y1.3139  
G01 X-0.9822 Y1.3296  
G01 X-0.8103 Y1.5015  
G01 X-0.7797 Y1.5015  
G01 X-0.7435 Y1.4653  
G01 X-0.7435 Y1.4347  
G01 X-0.7883 Y1.3900  
G01 X-0.7908 Y1.3861  
G01 X-0.7926 Y1.3819  
G01 X-0.7935 Y1.3773  
G01 X-0.7935 Y1.2727  
G01 X-0.7926 Y1.2681  
G01 X-0.7908 Y1.2639  
G01 X-0.7883 Y1.2600  
G01 X-0.7850 Y1.2567  
G01 X-0.7350 Y1.2067  
G01 X-0.7311 Y1.2042  
G01 X-0.7269 Y1.2024  
G01 X-0.7223 Y1.2015  
G01 X-0.6677 Y1.2015  
G01 X-0.6631 Y1.2024  
G01 X-0.6589 Y1.2042  
G01 X-0.6550 Y1.2067  
G01 X-0.6517 Y1.2100  
G01 X-0.6103 Y1.2515  
G01 X-0.5547 Y1.2515  
G01 X-0.3685 Y1.0653  
G01 X-0.3685 Y0.5847  
G01 X-0.3817 Y0.5715  
G01 X-0.6032 Y0.5233  
G01 X-0.6038 Y0.5233  
G01 X-0.6055 Y0.5229  
G01 X-0.6073 Y0.5225  
G01 X-0.6077 Y0.5223  
G01 X-0.6083 Y0.5221  
G01 X-0.6099 Y0.5213  
G01 X-0.6115 Y0.5206  
G01 X-0.6119 Y0.5203  
G01 X-0.6124 Y0.5201  
G01 X-0.6138 Y0.5190  
G01 X-0.6153 Y0.5180  
G01 X-0.6157 Y0.5176  
G01 X-0.6161 Y0.5173  
G01 X-0.6173 Y0.5159  
G01 X-0.6185 Y0.5147  
G01 X-0.6188 Y0.5142  
G01 X-0.7670 Y0.3462  
G01 X-0.7681 Y0.3452  
G01 X-0.7686 Y0.3445  
G01 X-0.7692 Y0.3438  
G01 X-0.7699 Y0.3426  
G01 X-0.7707 Y0.3414  
G01 X-0.7710 Y0.3406  
G01 X-0.7715 Y0.3398  
G01 X-0.7719 Y0.3385  
G01 X-0.8105 Y0.2485  
G01 X-0.9403 Y0.2485  
G01 X-1.0850 Y0.3933  
G01 X-1.0889 Y0.3958  
G01 X-1.0931 Y0.3976  
G01 X-1.0977 Y0.3985  
G01 X-1.1853 Y0.3985  
G01 X-1.2365 Y0.4497  
G01 X-1.2365 Y0.4639  
G01 X-1.2465 Y0.4739  
G01 X-1.2465 Y0.4903  
G01 X-1.0703 Y0.6665  
G01 X-1.0561 Y0.6665  
G01 X-1.0365 Y0.6861  
G01 X-1.0365 Y0.7139  
G01 X-1.0465 Y0.7239  
G01 X-1.0465 Y0.7523  
G01 X-1.0474 Y0.7569  
G01 X-1.0492 Y0.7611  
G01 X-1.0517 Y0.7650  
G01 X-1.1365 Y0.8497  
G01 X-1.1365 Y0.8639  
G01 X-1.1561 Y0.8835  
G01 X-1.1839 Y0.8835  
G01 X-1.1939 Y0.8735  
G01 X-1.3403 Y0.8735  
G01 X-1.4100 Y0.9433  
G01 X-1.4139 Y0.9458  
G01 X-1.4181 Y0.9476  
G01 X-1.4227 Y0.9485  
G01 X-1.6853 Y0.9485  
G01 X-1.8365 Y1.0997  
G01 X-1.8365 Y1.1139  
G01 X-1.8561 Y1.1335  
G01 X-1.8839 Y1.1335  
G01 X-1.9035 Y1.1139  
G01 X-1.9035 Y1.0861  
G01 X-1.8839 Y1.0665  
G01 X-1.8697 Y1.0665  
G01 X-1.7133 Y0.9100  
G01 X-1.7100 Y0.9067  
G01 X-1.7061 Y0.9042  
G01 X-1.7019 Y0.9024  
G01 X-1.6973 Y0.9015  
G01 X-1.4347 Y0.9015  
G01 X-1.3650 Y0.8317  
G01 X-1.3611 Y0.8292  
G01 X-1.3569 Y0.8274  
G01 X-1.3523 Y0.8265  
G01 X-1.1939 Y0.8265  
G01 X-1.1839 Y0.8165  
G01 X-1.1697 Y0.8165  
G01 X-1.0935 Y0.7403  
G01 X-1.0935 Y0.7239  
G01 X-1.1035 Y0.7139  
G01 X-1.1035 Y0.6997  
G01 X-1.2883 Y0.5150  
G01 X-1.2908 Y0.5111  
G01 X-1.2926 Y0.5069  
G01 X-1.2935 Y0.5023  
G01 X-1.2935 Y0.4739  
G01 X-1.3035 Y0.4639  
G01 X-1.3035 Y0.4361  
G01 X-1.2839 Y0.4165  
G01 X-1.2697 Y0.4165  
G01 X-1.2133 Y0.3600  
G01 X-1.2100 Y0.3567  
G01 X-1.2061 Y0.3542  
G01 X-1.2019 Y0.3524  
G01 X-1.1973 Y0.3515  
G01 X-1.1097 Y0.3515  
G01 X-0.9683 Y0.2100  
G01 X-0.9650 Y0.2067  
G01 X-0.9611 Y0.2042  
G01 X-0.9569 Y0.2024  
G01 X-0.9523 Y0.2015  
G01 X-0.7951 Y0.2015  
G01 X-0.7930 Y0.2015  
G01 X-0.7928 Y0.2015  
G01 X-0.7927 Y0.2015  
G01 X-0.7906 Y0.2019  
G01 X-0.7884 Y0.2023  
G01 X-0.7883 Y0.2024  
G01 X-0.7881 Y0.2024  
G01 X-0.7861 Y0.2032  
G01 X-0.7841 Y0.2040  
G01 X-0.7840 Y0.2041  
G01 X-0.7839 Y0.2042  
G01 X-0.7821 Y0.2054  
G01 X-0.7802 Y0.2066  
G01 X-0.7801 Y0.2067  
G01 X-0.7800 Y0.2067  
G01 X-0.7785 Y0.2083  
G01 X-0.7769 Y0.2098  
G01 X-0.7768 Y0.2099  
G01 X-0.7767 Y0.2100  
G01 X-0.7755 Y0.2118  
G01 X-0.7743 Y0.2136  
G01 X-0.7743 Y0.2137  
G01 X-0.7742 Y0.2139  
G01 X-0.7733 Y0.2159  
G01 X-0.7299 Y0.3173  
G01 X-0.5875 Y0.4787  
G01 X-0.3652 Y0.5270  
G01 X-0.3631 Y0.5274  
G01 X-0.3630 Y0.5275  
G01 X-0.3627 Y0.5275  
G01 X-0.3608 Y0.5284  
G01 X-0.3589 Y0.5292  
G01 X-0.3587 Y0.5293  
G01 X-0.3585 Y0.5294  
G01 X-0.3568 Y0.5306  
G01 X-0.3550 Y0.5317  
G01 X-0.3549 Y0.5319  
G01 X-0.3547 Y0.5320  
G00 Z0.0500  
G00 X-0.3940 Y0.6286  
G01 Z-0.0035 F10    
G01 X-0.3903 Y0.6341  F20    
G01 X-0.3878 Y0.6402  
G01 X-0.3865 Y0.6467  
G01 X-0.3865 Y0.6533  
G01 X-0.3878 Y0.6598  
G01 X-0.3903 Y0.6659  
G01 X-0.3940 Y0.6714  
G01 X-0.3965 Y0.6739  
G01 X-0.3965 Y0.9261  
G01 X-0.3865 Y0.9361  
G01 X-0.3865 Y0.9639  
G01 X-0.3965 Y0.9739  
G01 X-0.3965 Y1.0523  
G01 X-0.3974 Y1.0569  
G01 X-0.3992 Y1.0611  
G01 X-0.4017 Y1.0650  
G01 X-0.4165 Y1.0797  
G01 X-0.4165 Y1.1039  
G01 X-0.4361 Y1.1235  
G01 X-0.4639 Y1.1235  
G01 X-0.4835 Y1.1039  
G01 X-0.4835 Y1.0761  
G01 X-0.4639 Y1.0565  
G01 X-0.4597 Y1.0565  
G01 X-0.4435 Y1.0403  
G01 X-0.4435 Y0.9739  
G01 X-0.4535 Y0.9639  
G01 X-0.4535 Y0.9361  
G01 X-0.4435 Y0.9261  
G01 X-0.4435 Y0.6739  
G01 X-0.4460 Y0.6714  
G01 X-0.4497 Y0.6659  
G01 X-0.4511 Y0.6623  
G01 X-0.5548 Y0.6185  
G01 X-0.6293 Y0.6185  
G01 X-0.6482 Y0.6644  
G01 X-0.6465 Y0.6661  
G01 X-0.6465 Y0.6939  
G01 X-0.6661 Y0.7135  
G01 X-0.6939 Y0.7135  
G01 X-0.7039 Y0.7035  
G01 X-0.7189 Y0.7035  
G01 X-0.7365 Y0.7133  
G01 X-0.7365 Y0.7139  
G01 X-0.7561 Y0.7335  
G01 X-0.7839 Y0.7335  
G01 X-0.8035 Y0.7139  
G01 X-0.8035 Y0.6861  
G01 X-0.7839 Y0.6665  
G01 X-0.7561 Y0.6665  
G01 X-0.7536 Y0.6690  
G01 X-0.7373 Y0.6599  
G01 X-0.7361 Y0.6592  
G01 X-0.7352 Y0.6588  
G01 X-0.7344 Y0.6583  
G01 X-0.7331 Y0.6579  
G01 X-0.7319 Y0.6574  
G01 X-0.7309 Y0.6572  
G01 X-0.7300 Y0.6569  
G01 X-0.7286 Y0.6568  
G01 X-0.7273 Y0.6565  
G01 X-0.7263 Y0.6565  
G01 X-0.7254 Y0.6564  
G01 X-0.7240 Y0.6565  
G01 X-0.7039 Y0.6565  
G01 X-0.6939 Y0.6465  
G01 X-0.6916 Y0.6465  
G01 X-0.6676 Y0.5882  
G01 X-0.6667 Y0.5860  
G01 X-0.6658 Y0.5839  
G01 X-0.6645 Y0.5819  
G01 X-0.6633 Y0.5801  
G01 X-0.6616 Y0.5784  
G01 X-0.6600 Y0.5768  
G01 X-0.6581 Y0.5755  
G01 X-0.6562 Y0.5742  
G01 X-0.6540 Y0.5733  
G01 X-0.6519 Y0.5724  
G01 X-0.6496 Y0.5720  
G01 X-0.6474 Y0.5715  
G01 X-0.6450 Y0.5715  
G01 X-0.6427 Y0.5715  
G01 X-0.5522 Y0.5715  
G01 X-0.5499 Y0.5715  
G01 X-0.5477 Y0.5715  
G01 X-0.5475 Y0.5715  
G01 X-0.5453 Y0.5720  
G01 X-0.5431 Y0.5724  
G01 X-0.5430 Y0.5725  
G01 X-0.5409 Y0.5733  
G01 X-0.5389 Y0.5742  
G01 X-0.4328 Y0.6191  
G01 X-0.4298 Y0.6178  
G01 X-0.4233 Y0.6165  
G01 X-0.4167 Y0.6165  
G01 X-0.4102 Y0.6178  
G01 X-0.4041 Y0.6203  
G01 X-0.3986 Y0.6240  
G01 X-0.3940 Y0.6286  
G00 Z0.0500  
G00 X-0.5465 Y0.6661  
G01 Z-0.0035 F10    
G01 X-0.5465 Y0.6778  F20    
G01 X-0.5308 Y0.6912  
G01 X-0.5300 Y0.6917  
G01 X-0.5290 Y0.6927  
G01 X-0.5279 Y0.6937  
G01 X-0.5274 Y0.6944  
G01 X-0.5267 Y0.6950  
G01 X-0.5260 Y0.6962  
G01 X-0.5251 Y0.6973  
G01 X-0.5247 Y0.6981  
G01 X-0.5242 Y0.6989  
G01 X-0.5236 Y0.7002  
G01 X-0.5230 Y0.7014  
G01 X-0.5228 Y0.7023  
G01 X-0.5224 Y0.7031  
G01 X-0.5221 Y0.7045  
G01 X-0.5217 Y0.7059  
G01 X-0.5217 Y0.7068  
G01 X-0.5215 Y0.7077  
G01 X-0.5215 Y0.7091  
G01 X-0.5214 Y0.7105  
G01 X-0.5215 Y0.7114  
G01 X-0.5215 Y0.7977  
G01 X-0.5181 Y0.8145  
G01 X-0.5165 Y0.8161  
G01 X-0.5165 Y0.8242  
G01 X-0.5164 Y0.8256  
G01 X-0.5165 Y0.8265  
G01 X-0.5165 Y0.8273  
G01 X-0.5165 Y0.8439  
G01 X-0.5361 Y0.8635  
G01 X-0.5639 Y0.8635  
G01 X-0.5835 Y0.8439  
G01 X-0.5835 Y0.8161  
G01 X-0.5685 Y0.8011  
G01 X-0.5685 Y0.8000  
G01 X-0.5685 Y0.7977  
G01 X-0.5685 Y0.7208  
G01 X-0.5770 Y0.7135  
G01 X-0.5939 Y0.7135  
G01 X-0.6135 Y0.6939  
G01 X-0.6135 Y0.6661  
G01 X-0.5939 Y0.6465  
G01 X-0.5661 Y0.6465  
G01 X-0.5465 Y0.6661  
G00 Z0.0500  
G00 X-0.5965 Y0.7411  
G01 Z-0.0035 F10    
G01 X-0.5965 Y0.7689  F20    
G01 X-0.6161 Y0.7885  
G01 X-0.6258 Y0.7885  
G01 X-0.6676 Y0.8973  
G01 X-0.6679 Y0.8984  
G01 X-0.6685 Y0.8995  
G01 X-0.6689 Y0.9006  
G01 X-0.6695 Y0.9016  
G01 X-0.6867 Y0.9359  
G01 X-0.6865 Y0.9361  
G01 X-0.6865 Y0.9639  
G01 X-0.7061 Y0.9835  
G01 X-0.7203 Y0.9835  
G01 X-0.7243 Y0.9875  
G01 X-0.6553 Y1.0565  
G01 X-0.6361 Y1.0565  
G01 X-0.6165 Y1.0761  
G01 X-0.6165 Y1.1039  
G01 X-0.6247 Y1.1121  
G01 X-0.5603 Y1.1765  
G01 X-0.5561 Y1.1765  
G01 X-0.5365 Y1.1961  
G01 X-0.5365 Y1.2239  
G01 X-0.5561 Y1.2435  
G01 X-0.5839 Y1.2435  
G01 X-0.6035 Y1.2239  
G01 X-0.6035 Y1.1997  
G01 X-0.6860 Y1.1172  
G01 X-0.6871 Y1.1162  
G01 X-0.6877 Y1.1156  
G01 X-0.6883 Y1.1150  
G01 X-0.6891 Y1.1137  
G01 X-0.6900 Y1.1126  
G01 X-0.6904 Y1.1118  
G01 X-0.6908 Y1.1111  
G01 X-0.6914 Y1.1098  
G01 X-0.6921 Y1.1084  
G01 X-0.6923 Y1.1076  
G01 X-0.6926 Y1.1069  
G01 X-0.6929 Y1.1054  
G01 X-0.6933 Y1.1040  
G01 X-0.6933 Y1.1031  
G01 X-0.6935 Y1.1023  
G01 X-0.6935 Y1.1008  
G01 X-0.6936 Y1.0994  
G01 X-0.6935 Y1.0985  
G01 X-0.6935 Y1.0977  
G01 X-0.6932 Y1.0962  
G01 X-0.6930 Y1.0948  
G01 X-0.6928 Y1.0940  
G01 X-0.6926 Y1.0931  
G01 X-0.6920 Y1.0918  
G01 X-0.6916 Y1.0904  
G01 X-0.6911 Y1.0896  
G01 X-0.6908 Y1.0889  
G01 X-0.6902 Y1.0880  
G01 X-0.7547 Y1.0235  
G01 X-1.0865 Y1.0235  
G01 X-1.0865 Y1.0339  
G01 X-1.1061 Y1.0535  
G01 X-1.1339 Y1.0535  
G01 X-1.1535 Y1.0339  
G01 X-1.1535 Y1.0061  
G01 X-1.1431 Y0.9957  
G01 X-1.1426 Y0.9931  
G01 X-1.1408 Y0.9889  
G01 X-1.1383 Y0.9850  
G01 X-1.1350 Y0.9817  
G01 X-1.1311 Y0.9792  
G01 X-1.1269 Y0.9774  
G01 X-1.1223 Y0.9765  
G01 X-0.7797 Y0.9765  
G01 X-0.7535 Y0.9503  
G01 X-0.7535 Y0.9361  
G01 X-0.7339 Y0.9165  
G01 X-0.7295 Y0.9165  
G01 X-0.7115 Y0.8805  
G01 X-0.6635 Y0.7556  
G01 X-0.6635 Y0.7411  
G01 X-0.6439 Y0.7215  
G01 X-0.6161 Y0.7215  
G01 X-0.5965 Y0.7411  
G00 Z0.0500  
G00 X-0.6726 Y0.5460  
G01 Z-0.0035 F10    
G01 X-0.6781 Y0.5497  F20    
G01 X-0.6842 Y0.5522  
G01 X-0.6907 Y0.5535  
G01 X-0.7210 Y0.5535  
G01 X-1.1715 Y0.9850  
G01 X-1.1715 Y1.0403  
G01 X-1.0353 Y1.1765  
G01 X-0.9439 Y1.1765  
G01 X-0.9339 Y1.1665  
G01 X-0.9061 Y1.1665  
G01 X-0.8865 Y1.1861  
G01 X-0.8865 Y1.2139  
G01 X-0.8965 Y1.2239  
G01 X-0.8965 Y1.3153  
G01 X-0.7953 Y1.4165  
G01 X-0.7761 Y1.4165  
G01 X-0.7565 Y1.4361  
G01 X-0.7565 Y1.4639  
G01 X-0.7761 Y1.4835  
G01 X-0.8039 Y1.4835  
G01 X-0.8235 Y1.4639  
G01 X-0.8235 Y1.4547  
G01 X-0.9383 Y1.3400  
G01 X-0.9408 Y1.3361  
G01 X-0.9426 Y1.3319  
G01 X-0.9435 Y1.3273  
G01 X-0.9435 Y1.2239  
G01 X-0.9439 Y1.2235  
G01 X-1.0473 Y1.2235  
G01 X-1.0519 Y1.2226  
G01 X-1.0561 Y1.2208  
G01 X-1.0600 Y1.2183  
G01 X-1.0633 Y1.2150  
G01 X-1.2133 Y1.0650  
G01 X-1.2158 Y1.0611  
G01 X-1.2176 Y1.0569  
G01 X-1.2185 Y1.0523  
G01 X-1.2185 Y0.9771  
G01 X-1.2185 Y0.9768  
G01 X-1.2185 Y0.9747  
G01 X-1.2185 Y0.9727  
G01 X-1.2185 Y0.9724  
G01 X-1.2184 Y0.9722  
G01 X-1.2180 Y0.9702  
G01 X-1.2176 Y0.9681  
G01 X-1.2175 Y0.9679  
G01 X-1.2174 Y0.9677  
G01 X-1.2166 Y0.9658  
G01 X-1.2158 Y0.9639  
G01 X-1.2157 Y0.9637  
G01 X-1.2156 Y0.9634  
G01 X-1.2144 Y0.9617  
G01 X-1.2133 Y0.9600  
G01 X-1.2131 Y0.9598  
G01 X-1.2129 Y0.9596  
G01 X-1.2114 Y0.9582  
G01 X-1.2100 Y0.9567  
G01 X-1.2098 Y0.9566  
G01 X-0.7737 Y0.5389  
G01 X-0.7757 Y0.5359  
G01 X-0.7782 Y0.5298  
G01 X-0.7795 Y0.5233  
G01 X-0.7795 Y0.5167  
G01 X-0.7782 Y0.5102  
G01 X-0.7757 Y0.5041  
G01 X-0.7720 Y0.4986  
G01 X-0.7693 Y0.4960  
G01 X-0.7776 Y0.4856  
G01 X-0.7785 Y0.4847  
G01 X-0.7791 Y0.4838  
G01 X-0.7798 Y0.4829  
G01 X-0.7803 Y0.4818  
G01 X-0.8763 Y0.3335  
G01 X-0.8993 Y0.3335  
G01 X-0.9058 Y0.3322  
G01 X-0.9119 Y0.3297  
G01 X-0.9174 Y0.3260  
G01 X-0.9220 Y0.3214  
G01 X-0.9257 Y0.3159  
G01 X-0.9282 Y0.3098  
G01 X-0.9295 Y0.3033  
G01 X-0.9295 Y0.2967  
G01 X-0.9282 Y0.2902  
G01 X-0.9257 Y0.2841  
G01 X-0.9220 Y0.2786  
G01 X-0.9174 Y0.2740  
G01 X-0.9119 Y0.2703  
G01 X-0.9058 Y0.2678  
G01 X-0.8993 Y0.2665  
G01 X-0.8407 Y0.2665  
G01 X-0.8342 Y0.2678  
G01 X-0.8281 Y0.2703  
G01 X-0.8226 Y0.2740  
G01 X-0.8180 Y0.2786  
G01 X-0.8143 Y0.2841  
G01 X-0.8118 Y0.2902  
G01 X-0.8105 Y0.2967  
G01 X-0.8105 Y0.3033  
G01 X-0.8118 Y0.3098  
G01 X-0.8143 Y0.3159  
G01 X-0.8180 Y0.3214  
G01 X-0.8226 Y0.3260  
G01 X-0.8244 Y0.3272  
G01 X-0.7409 Y0.4562  
G01 X-0.7167 Y0.4865  
G01 X-0.6907 Y0.4865  
G01 X-0.6842 Y0.4878  
G01 X-0.6781 Y0.4903  
G01 X-0.6726 Y0.4940  
G01 X-0.6680 Y0.4986  
G01 X-0.6643 Y0.5041  
G01 X-0.6618 Y0.5102  
G01 X-0.6605 Y0.5167  
G01 X-0.6605 Y0.5233  
G01 X-0.6618 Y0.5298  
G01 X-0.6643 Y0.5359  
G01 X-0.6680 Y0.5414  
G01 X-0.6726 Y0.5460  
G00 Z0.0500  
G00 X-0.9726 Y0.5460  
G01 Z-0.0035 F10    
G01 X-0.9781 Y0.5497  F20    
G01 X-0.9842 Y0.5522  
G01 X-0.9907 Y0.5535  
G01 X-1.0493 Y0.5535  
G01 X-1.0558 Y0.5522  
G01 X-1.0619 Y0.5497  
G01 X-1.0674 Y0.5460  
G01 X-1.0720 Y0.5414  
G01 X-1.0757 Y0.5359  
G01 X-1.0782 Y0.5298  
G01 X-1.0795 Y0.5233  
G01 X-1.0795 Y0.5201  
G01 X-1.0978 Y0.5122  
G01 X-1.0984 Y0.5121  
G01 X-1.0999 Y0.5113  
G01 X-1.1014 Y0.5107  
G01 X-1.1020 Y0.5103  
G01 X-1.1559 Y0.4833  
G01 X-1.1561 Y0.4835  
G01 X-1.1839 Y0.4835  
G01 X-1.2035 Y0.4639  
G01 X-1.2035 Y0.4361  
G01 X-1.1839 Y0.4165  
G01 X-1.1561 Y0.4165  
G01 X-1.1365 Y0.4361  
G01 X-1.1365 Y0.4405  
G01 X-1.0801 Y0.4687  
G01 X-1.0385 Y0.4865  
G01 X-0.9907 Y0.4865  
G01 X-0.9842 Y0.4878  
G01 X-0.9781 Y0.4903  
G01 X-0.9726 Y0.4940  
G01 X-0.9680 Y0.4986  
G01 X-0.9643 Y0.5041  
G01 X-0.9618 Y0.5102  
G01 X-0.9605 Y0.5167  
G01 X-0.9605 Y0.5233  
G01 X-0.9618 Y0.5298  
G01 X-0.9643 Y0.5359  
G01 X-0.9680 Y0.5414  
G01 X-0.9726 Y0.5460  
G00 Z0.0500  
G00 X-1.1365 Y0.7361  
G01 Z-0.0035 F10    
G01 X-1.1365 Y0.7639  F20    
G01 X-1.1561 Y0.7835  
G01 X-1.1839 Y0.7835  
G01 X-1.1939 Y0.7735  
G01 X-1.2461 Y0.7735  
G01 X-1.2561 Y0.7835  
G01 X-1.2839 Y0.7835  
G01 X-1.2939 Y0.7735  
G01 X-1.2973 Y0.7735  
G01 X-1.3019 Y0.7726  
G01 X-1.3061 Y0.7708  
G01 X-1.3100 Y0.7683  
G01 X-1.3133 Y0.7650  
G01 X-1.3947 Y0.6835  
G01 X-1.4089 Y0.6835  
G01 X-1.4285 Y0.6639  
G01 X-1.4285 Y0.6361  
G01 X-1.4089 Y0.6165  
G01 X-1.3811 Y0.6165  
G01 X-1.3615 Y0.6361  
G01 X-1.3615 Y0.6503  
G01 X-1.2896 Y0.7222  
G01 X-1.2839 Y0.7165  
G01 X-1.2561 Y0.7165  
G01 X-1.2461 Y0.7265  
G01 X-1.1939 Y0.7265  
G01 X-1.1839 Y0.7165  
G01 X-1.1561 Y0.7165  
G01 X-1.1365 Y0.7361  
G00 Z0.0500  
G00 X-1.4465 Y0.7239  
G01 Z-0.0035 F10    
G01 X-1.4465 Y0.8261  F20    
G01 X-1.4365 Y0.8361  
G01 X-1.4365 Y0.8639  
G01 X-1.4561 Y0.8835  
G01 X-1.4839 Y0.8835  
G01 X-1.5035 Y0.8639  
G01 X-1.5035 Y0.8361  
G01 X-1.4935 Y0.8261  
G01 X-1.4935 Y0.8235  
G01 X-1.6865 Y0.8235  
G01 X-1.6865 Y0.8293  
G01 X-1.6878 Y0.8358  
G01 X-1.6903 Y0.8419  
G01 X-1.6940 Y0.8474  
G01 X-1.6986 Y0.8520  
G01 X-1.7041 Y0.8557  
G01 X-1.7102 Y0.8582  
G01 X-1.7167 Y0.8595  
G01 X-1.7233 Y0.8595  
G01 X-1.7298 Y0.8582  
G01 X-1.7359 Y0.8557  
G01 X-1.7414 Y0.8520  
G01 X-1.7460 Y0.8474  
G01 X-1.7497 Y0.8419  
G01 X-1.7522 Y0.8358  
G01 X-1.7535 Y0.8293  
G01 X-1.7535 Y0.7707  
G01 X-1.7522 Y0.7642  
G01 X-1.7497 Y0.7581  
G01 X-1.7460 Y0.7526  
G01 X-1.7414 Y0.7480  
G01 X-1.7359 Y0.7443  
G01 X-1.7298 Y0.7418  
G01 X-1.7233 Y0.7405  
G01 X-1.7167 Y0.7405  
G01 X-1.7102 Y0.7418  
G01 X-1.7041 Y0.7443  
G01 X-1.6986 Y0.7480  
G01 X-1.6940 Y0.7526  
G01 X-1.6903 Y0.7581  
G01 X-1.6878 Y0.7642  
G01 X-1.6865 Y0.7707  
G01 X-1.6865 Y0.7765  
G01 X-1.4935 Y0.7765  
G01 X-1.4935 Y0.7239  
G01 X-1.5035 Y0.7139  
G01 X-1.5035 Y0.6861  
G01 X-1.4839 Y0.6665  
G01 X-1.4561 Y0.6665  
G01 X-1.4365 Y0.6861  
G01 X-1.4365 Y0.7139  
G01 X-1.4465 Y0.7239  
G00 Z0.0500  
G00 X-1.4461 Y0.4235  
G01 Z-0.0035 F10    
G01 X-1.4733 Y0.4235  F20    
G01 X-1.6365 Y0.5090  
G01 X-1.6365 Y0.5139  
G01 X-1.6561 Y0.5335  
G01 X-1.6839 Y0.5335  
G01 X-1.7035 Y0.5139  
G01 X-1.7035 Y0.4861  
G01 X-1.6839 Y0.4665  
G01 X-1.6567 Y0.4665  
G01 X-1.5018 Y0.3854  
G01 X-1.5868 Y0.3135  
G01 X-1.6039 Y0.3135  
G01 X-1.6235 Y0.2939  
G01 X-1.6235 Y0.2661  
G01 X-1.6039 Y0.2465  
G01 X-1.5761 Y0.2465  
G01 X-1.5565 Y0.2661  
G01 X-1.5565 Y0.2776  
G01 X-1.4632 Y0.3565  
G01 X-1.4461 Y0.3565  
G01 X-1.4265 Y0.3761  
G01 X-1.4265 Y0.4039  
G01 X-1.4461 Y0.4235  
G00 Z0.0500  
G00 X-1.3235 Y0.2939  
G01 Z-0.0035 F10    
G01 X-1.3235 Y0.2661  F20    
G01 X-1.3039 Y0.2465  
G01 X-1.2761 Y0.2465  
G01 X-1.2617 Y0.2609  
G01 X-1.2099 Y0.2695  
G01 X-1.2058 Y0.2678  
G01 X-1.1993 Y0.2665  
G01 X-1.1407 Y0.2665  
G01 X-1.1342 Y0.2678  
G01 X-1.1281 Y0.2703  
G01 X-1.1226 Y0.2740  
G01 X-1.1180 Y0.2786  
G01 X-1.1143 Y0.2841  
G01 X-1.1118 Y0.2902  
G01 X-1.1105 Y0.2967  
G01 X-1.1105 Y0.3033  
G01 X-1.1118 Y0.3098  
G01 X-1.1143 Y0.3159  
G01 X-1.1180 Y0.3214  
G01 X-1.1226 Y0.3260  
G01 X-1.1281 Y0.3297  
G01 X-1.1342 Y0.3322  
G01 X-1.1407 Y0.3335  
G01 X-1.1993 Y0.3335  
G01 X-1.2058 Y0.3322  
G01 X-1.2119 Y0.3297  
G01 X-1.2174 Y0.3260  
G01 X-1.2220 Y0.3214  
G01 X-1.2257 Y0.3159  
G01 X-1.2263 Y0.3144  
G01 X-1.2698 Y0.3072  
G01 X-1.2761 Y0.3135  
G01 X-1.3039 Y0.3135  
G01 X-1.3235 Y0.2939  
G00 Z0.0500  
G00 X-1.7265 Y0.3761  
G01 Z-0.0035 F10    
G01 X-1.7265 Y0.4039  F20    
G01 X-1.7461 Y0.4235  
G01 X-1.7739 Y0.4235  
G01 X-1.7935 Y0.4039  
G01 X-1.7935 Y0.3959  
G01 X-1.8125 Y0.3832  
G01 X-1.8289 Y0.4105  
G01 X-1.8384 Y0.4342  
G01 X-1.8365 Y0.4361  
G01 X-1.8365 Y0.4639  
G01 X-1.8561 Y0.4835  
G01 X-1.8839 Y0.4835  
G01 X-1.9035 Y0.4639  
G01 X-1.9035 Y0.4361  
G01 X-1.8839 Y0.4165  
G01 X-1.8819 Y0.4165  
G01 X-1.8720 Y0.3917  
G01 X-1.8713 Y0.3899  
G01 X-1.8711 Y0.3895  
G01 X-1.8710 Y0.3891  
G01 X-1.8699 Y0.3875  
G01 X-1.8615 Y0.3735  
G01 X-1.8839 Y0.3735  
G01 X-1.9035 Y0.3539  
G01 X-1.9035 Y0.3261  
G01 X-1.8839 Y0.3065  
G01 X-1.8561 Y0.3065  
G01 X-1.8407 Y0.3219  
G01 X-1.8160 Y0.3268  
G01 X-1.8143 Y0.3271  
G01 X-1.8137 Y0.3273  
G01 X-1.8132 Y0.3274  
G01 X-1.8115 Y0.3281  
G01 X-1.8099 Y0.3287  
G01 X-1.8094 Y0.3289  
G01 X-1.8089 Y0.3292  
G01 X-1.8074 Y0.3301  
G01 X-1.8059 Y0.3310  
G01 X-1.8055 Y0.3314  
G01 X-1.7679 Y0.3565  
G01 X-1.7461 Y0.3565  
G01 X-1.7265 Y0.3761  
G00 Z0.0500  
G00 X-2.0465 Y0.3639  
G01 Z-0.0035 F10    
G01 X-2.0465 Y0.4261  F20    
G01 X-2.0365 Y0.4361  
G01 X-2.0365 Y0.4639  
G01 X-2.0465 Y0.4739  
G01 X-2.0465 Y0.5403  
G01 X-1.9800 Y0.6067  
G01 X-1.9767 Y0.6100  
G01 X-1.9742 Y0.6139  
G01 X-1.9724 Y0.6181  
G01 X-1.9715 Y0.6227  
G01 X-1.9715 Y1.0773  
G01 X-1.9724 Y1.0819  
G01 X-1.9742 Y1.0861  
G01 X-1.9767 Y1.0900  
G01 X-1.9865 Y1.0997  
G01 X-1.9865 Y1.1139  
G01 X-1.9965 Y1.1239  
G01 X-1.9965 Y1.1553  
G01 X-1.8550 Y1.2967  
G01 X-1.8517 Y1.3000  
G01 X-1.8492 Y1.3039  
G01 X-1.8474 Y1.3081  
G01 X-1.8465 Y1.3127  
G01 X-1.8465 Y1.3761  
G01 X-1.8365 Y1.3861  
G01 X-1.8365 Y1.4139  
G01 X-1.8465 Y1.4239  
G01 X-1.8465 Y1.5261  
G01 X-1.8365 Y1.5361  
G01 X-1.8365 Y1.5639  
G01 X-1.8561 Y1.5835  
G01 X-1.8839 Y1.5835  
G01 X-1.8939 Y1.5735  
G01 X-1.9961 Y1.5735  
G01 X-2.0061 Y1.5835  
G01 X-2.0339 Y1.5835  
G01 X-2.0535 Y1.5639  
G01 X-2.0535 Y1.5361  
G01 X-2.0339 Y1.5165  
G01 X-2.0061 Y1.5165  
G01 X-1.9961 Y1.5265  
G01 X-1.8939 Y1.5265  
G01 X-1.8935 Y1.5261  
G01 X-1.8935 Y1.4239  
G01 X-1.9035 Y1.4139  
G01 X-1.9035 Y1.3861  
G01 X-1.8935 Y1.3761  
G01 X-1.8935 Y1.3247  
G01 X-2.0383 Y1.1800  
G01 X-2.0408 Y1.1761  
G01 X-2.0426 Y1.1719  
G01 X-2.0435 Y1.1673  
G01 X-2.0435 Y1.1239  
G01 X-2.0535 Y1.1139  
G01 X-2.0535 Y1.0861  
G01 X-2.0339 Y1.0665  
G01 X-2.0197 Y1.0665  
G01 X-2.0185 Y1.0653  
G01 X-2.0185 Y0.6347  
G01 X-2.0883 Y0.5650  
G01 X-2.0908 Y0.5611  
G01 X-2.0926 Y0.5569  
G01 X-2.0935 Y0.5523  
G01 X-2.0935 Y0.4739  
G01 X-2.1035 Y0.4639  
G01 X-2.1035 Y0.4361  
G01 X-2.0935 Y0.4261  
G01 X-2.0935 Y0.3639  
G01 X-2.1035 Y0.3539  
G01 X-2.1035 Y0.3261  
G01 X-2.0839 Y0.3065  
G01 X-2.0561 Y0.3065  
G01 X-2.0365 Y0.3261  
G01 X-2.0365 Y0.3539  
G01 X-2.0465 Y0.3639  
G00 Z0.0500  
G00 X-2.0561 Y0.6165  
G01 Z-0.0035 F10    
G01 X-2.0365 Y0.6361  F20    
G01 X-2.0365 Y0.6639  
G01 X-2.0465 Y0.6739  
G01 X-2.0465 Y0.7761  
G01 X-2.0365 Y0.7861  
G01 X-2.0365 Y0.8139  
G01 X-2.0561 Y0.8335  
G01 X-2.0703 Y0.8335  
G01 X-2.0715 Y0.8347  
G01 X-2.0715 Y1.2953  
G01 X-2.0017 Y1.3650  
G01 X-1.9992 Y1.3689  
G01 X-1.9974 Y1.3731  
G01 X-1.9969 Y1.3757  
G01 X-1.9865 Y1.3861  
G01 X-1.9865 Y1.4139  
G01 X-2.0061 Y1.4335  
G01 X-2.0203 Y1.4335  
G01 X-2.0422 Y1.4554  
G01 X-2.0365 Y1.4611  
G01 X-2.0365 Y1.4889  
G01 X-2.0561 Y1.5085  
G01 X-2.0839 Y1.5085  
G01 X-2.1035 Y1.4889  
G01 X-2.1035 Y1.4611  
G01 X-2.0935 Y1.4511  
G01 X-2.0935 Y1.4477  
G01 X-2.0926 Y1.4431  
G01 X-2.0908 Y1.4389  
G01 X-2.0883 Y1.4350  
G01 X-2.0850 Y1.4317  
G01 X-2.0535 Y1.4003  
G01 X-2.0535 Y1.3861  
G01 X-2.0503 Y1.3829  
G01 X-2.1100 Y1.3233  
G01 X-2.1133 Y1.3200  
G01 X-2.1158 Y1.3161  
G01 X-2.1176 Y1.3119  
G01 X-2.1185 Y1.3073  
G01 X-2.1185 Y0.8227  
G01 X-2.1176 Y0.8181  
G01 X-2.1158 Y0.8139  
G01 X-2.1133 Y0.8100  
G01 X-2.1035 Y0.8003  
G01 X-2.1035 Y0.7861  
G01 X-2.0935 Y0.7761  
G01 X-2.0935 Y0.6739  
G01 X-2.1035 Y0.6639  
G01 X-2.1035 Y0.6361  
G01 X-2.0839 Y0.6165  
G01 X-2.0561 Y0.6165  
G00 Z0.0500  
G00 X-1.8839 Y0.6165  
G01 Z-0.0035 F10    
G01 X-1.8561 Y0.6165  F20    
G01 X-1.8365 Y0.6361  
G01 X-1.8365 Y0.6639  
G01 X-1.8465 Y0.6739  
G01 X-1.8465 Y0.7761  
G01 X-1.8365 Y0.7861  
G01 X-1.8365 Y0.8139  
G01 X-1.8465 Y0.8239  
G01 X-1.8465 Y0.9261  
G01 X-1.8365 Y0.9361  
G01 X-1.8365 Y0.9639  
G01 X-1.8561 Y0.9835  
G01 X-1.8839 Y0.9835  
G01 X-1.9035 Y0.9639  
G01 X-1.9035 Y0.9361  
G01 X-1.8935 Y0.9261  
G01 X-1.8935 Y0.8239  
G01 X-1.9035 Y0.8139  
G01 X-1.9035 Y0.7861  
G01 X-1.8935 Y0.7761  
G01 X-1.8935 Y0.6739  
G01 X-1.9035 Y0.6639  
G01 X-1.9035 Y0.6361  
G01 X-1.8839 Y0.6165  
G00 Z0.0500  
G00 X-1.7414 Y1.0480  
G01 Z-0.0035 F10    
G01 X-1.7359 Y1.0443  F20    
G01 X-1.7298 Y1.0418  
G01 X-1.7233 Y1.0405  
G01 X-1.7167 Y1.0405  
G01 X-1.7102 Y1.0418  
G01 X-1.7041 Y1.0443  
G01 X-1.6986 Y1.0480  
G01 X-1.6940 Y1.0526  
G01 X-1.6903 Y1.0581  
G01 X-1.6878 Y1.0642  
G01 X-1.6865 Y1.0707  
G01 X-1.6865 Y1.1003  
G01 X-1.6300 Y1.1567  
G01 X-1.6267 Y1.1600  
G01 X-1.6203 Y1.1665  
G01 X-1.6061 Y1.1665  
G01 X-1.5865 Y1.1861  
G01 X-1.5865 Y1.2139  
G01 X-1.6061 Y1.2335  
G01 X-1.6339 Y1.2335  
G01 X-1.6521 Y1.2153  
G01 X-1.6865 Y1.2497  
G01 X-1.6865 Y1.2639  
G01 X-1.7061 Y1.2835  
G01 X-1.7339 Y1.2835  
G01 X-1.7535 Y1.2639  
G01 X-1.7535 Y1.2361  
G01 X-1.7339 Y1.2165  
G01 X-1.7197 Y1.2165  
G01 X-1.6782 Y1.1750  
G01 X-1.7002 Y1.1530  
G01 X-1.7041 Y1.1557  
G01 X-1.7102 Y1.1582  
G01 X-1.7167 Y1.1595  
G01 X-1.7233 Y1.1595  
G01 X-1.7298 Y1.1582  
G01 X-1.7359 Y1.1557  
G01 X-1.7414 Y1.1520  
G01 X-1.7460 Y1.1474  
G01 X-1.7497 Y1.1419  
G01 X-1.7522 Y1.1358  
G01 X-1.7535 Y1.1293  
G01 X-1.7535 Y1.0707  
G01 X-1.7522 Y1.0642  
G01 X-1.7497 Y1.0581  
G01 X-1.7460 Y1.0526  
G01 X-1.7414 Y1.0480  
G00 Z0.0500  
G00 X-1.3535 Y1.0339  
G01 Z-0.0035 F10    
G01 X-1.3535 Y1.0061  F20    
G01 X-1.3339 Y0.9865  
G01 X-1.3061 Y0.9865  
G01 X-1.2865 Y1.0061  
G01 X-1.2865 Y1.0339  
G01 X-1.2965 Y1.0439  
G01 X-1.2965 Y1.1023  
G01 X-1.2974 Y1.1069  
G01 X-1.2992 Y1.1111  
G01 X-1.3017 Y1.1150  
G01 X-1.6215 Y1.4347  
G01 X-1.6215 Y1.8153  
G01 X-1.5703 Y1.8665  
G01 X-1.5561 Y1.8665  
G01 X-1.5365 Y1.8861  
G01 X-1.5365 Y1.9003  
G01 X-1.5203 Y1.9165  
G01 X-1.5061 Y1.9165  
G01 X-1.4865 Y1.9361  
G01 X-1.4865 Y1.9639  
G01 X-1.5061 Y1.9835  
G01 X-1.5339 Y1.9835  
G01 X-1.5535 Y1.9639  
G01 X-1.5535 Y1.9497  
G01 X-1.5697 Y1.9335  
G01 X-1.5839 Y1.9335  
G01 X-1.6035 Y1.9139  
G01 X-1.6035 Y1.8997  
G01 X-1.6600 Y1.8433  
G01 X-1.6633 Y1.8400  
G01 X-1.6658 Y1.8361  
G01 X-1.6676 Y1.8319  
G01 X-1.6685 Y1.8273  
G01 X-1.6685 Y1.4227  
G01 X-1.6676 Y1.4181  
G01 X-1.6658 Y1.4139  
G01 X-1.6633 Y1.4100  
G01 X-1.6600 Y1.4067  
G01 X-1.3435 Y1.0903  
G01 X-1.3435 Y1.0439  
G01 X-1.3535 Y1.0339  
G00 Z0.0500  
G00 X-1.3339 Y1.1665  
G01 Z-0.0035 F10    
G01 X-1.3061 Y1.1665  F20    
G01 X-1.2865 Y1.1861  
G01 X-1.2865 Y1.2139  
G01 X-1.3061 Y1.2335  
G01 X-1.3203 Y1.2335  
G01 X-1.4365 Y1.3497  
G01 X-1.4365 Y1.3639  
G01 X-1.4561 Y1.3835  
G01 X-1.4703 Y1.3835  
G01 X-1.5465 Y1.4597  
G01 X-1.5465 Y1.4961  
G01 X-1.5365 Y1.5061  
G01 X-1.5365 Y1.5339  
G01 X-1.5561 Y1.5535  
G01 X-1.5839 Y1.5535  
G01 X-1.6035 Y1.5339  
G01 X-1.6035 Y1.5061  
G01 X-1.5935 Y1.4961  
G01 X-1.5935 Y1.4477  
G01 X-1.5926 Y1.4431  
G01 X-1.5908 Y1.4389  
G01 X-1.5883 Y1.4350  
G01 X-1.5035 Y1.3503  
G01 X-1.5035 Y1.3361  
G01 X-1.4839 Y1.3165  
G01 X-1.4697 Y1.3165  
G01 X-1.3535 Y1.2003  
G01 X-1.3535 Y1.1861  
G01 X-1.3339 Y1.1665  
G00 Z0.0500  
G00 X-1.3035 Y1.3361  
G01 Z-0.0035 F10    
G01 X-1.2839 Y1.3165  F20    
G01 X-1.2561 Y1.3165  
G01 X-1.2461 Y1.3265  
G01 X-1.1927 Y1.3265  
G01 X-1.1881 Y1.3274  
G01 X-1.1839 Y1.3292  
G01 X-1.1800 Y1.3317  
G01 X-1.0713 Y1.4405  
G01 X-1.0667 Y1.4405  
G01 X-1.0602 Y1.4418  
G01 X-1.0541 Y1.4443  
G01 X-1.0486 Y1.4480  
G01 X-1.0440 Y1.4526  
G01 X-1.0403 Y1.4581  
G01 X-1.0378 Y1.4642  
G01 X-1.0365 Y1.4707  
G01 X-1.0365 Y1.5293  
G01 X-1.0378 Y1.5358  
G01 X-1.0403 Y1.5419  
G01 X-1.0440 Y1.5474  
G01 X-1.0486 Y1.5520  
G01 X-1.0541 Y1.5557  
G01 X-1.0602 Y1.5582  
G01 X-1.0667 Y1.5595  
G01 X-1.0733 Y1.5595  
G01 X-1.0798 Y1.5582  
G01 X-1.0859 Y1.5557  
G01 X-1.0914 Y1.5520  
G01 X-1.0960 Y1.5474  
G01 X-1.0997 Y1.5419  
G01 X-1.1022 Y1.5358  
G01 X-1.1035 Y1.5293  
G01 X-1.1035 Y1.4747  
G01 X-1.2047 Y1.3735  
G01 X-1.2461 Y1.3735  
G01 X-1.2561 Y1.3835  
G01 X-1.2839 Y1.3835  
G01 X-1.3035 Y1.3639  
G01 X-1.3035 Y1.3361  
G00 Z0.0500  
G00 X-1.2839 Y1.4865  
G01 Z-0.0035 F10    
G01 X-1.2561 Y1.4865  F20    
G01 X-1.2365 Y1.5061  
G01 X-1.2365 Y1.5339  
G01 X-1.2465 Y1.5439  
G01 X-1.2465 Y1.5961  
G01 X-1.2365 Y1.6061  
G01 X-1.2365 Y1.6339  
G01 X-1.2561 Y1.6535  
G01 X-1.2828 Y1.6535  
G01 X-1.3865 Y1.7296  
G01 X-1.3865 Y1.7389  
G01 X-1.4061 Y1.7585  
G01 X-1.4339 Y1.7585  
G01 X-1.4535 Y1.7389  
G01 X-1.4535 Y1.7111  
G01 X-1.4339 Y1.6915  
G01 X-1.4141 Y1.6915  
G01 X-1.3035 Y1.6104  
G01 X-1.3035 Y1.6061  
G01 X-1.2935 Y1.5961  
G01 X-1.2935 Y1.5439  
G01 X-1.3035 Y1.5339  
G01 X-1.3035 Y1.5061  
G01 X-1.2839 Y1.4865  
G00 Z0.0500  
G00 X-1.2035 Y1.6861  
G01 Z-0.0035 F10    
G01 X-1.1839 Y1.6665  F20    
G01 X-1.1561 Y1.6665  
G01 X-1.1365 Y1.6861  
G01 X-1.1365 Y1.7003  
G01 X-1.0203 Y1.8165  
G01 X-1.0061 Y1.8165  
G01 X-0.9865 Y1.8361  
G01 X-0.9865 Y1.8469  
G01 X-0.8640 Y1.9465  
G01 X-0.8461 Y1.9465  
G01 X-0.8265 Y1.9661  
G01 X-0.8265 Y1.9939  
G01 X-0.8461 Y2.0135  
G01 X-0.8739 Y2.0135  
G01 X-0.8935 Y1.9939  
G01 X-0.8935 Y1.9831  
G01 X-1.0160 Y1.8835  
G01 X-1.0339 Y1.8835  
G01 X-1.0535 Y1.8639  
G01 X-1.0535 Y1.8497  
G01 X-1.1697 Y1.7335  
G01 X-1.1839 Y1.7335  
G01 X-1.1841 Y1.7333  
G01 X-1.3365 Y1.8095  
G01 X-1.3365 Y1.8139  
G01 X-1.3561 Y1.8335  
G01 X-1.3839 Y1.8335  
G01 X-1.4035 Y1.8139  
G01 X-1.4035 Y1.7861  
G01 X-1.3839 Y1.7665  
G01 X-1.3561 Y1.7665  
G01 X-1.3559 Y1.7667  
G01 X-1.2035 Y1.6905  
G01 X-1.2035 Y1.6861  
G00 Z0.0500  
G00 X-1.2061 Y1.9165  
G01 Z-0.0035 F10    
G01 X-1.1911 Y1.9315  F20    
G01 X-1.0798 Y1.9524  
G01 X-1.0739 Y1.9465  
G01 X-1.0461 Y1.9465  
G01 X-1.0265 Y1.9661  
G01 X-1.0265 Y1.9939  
G01 X-1.0461 Y2.0135  
G01 X-1.0739 Y2.0135  
G01 X-1.0889 Y1.9985  
G01 X-1.2002 Y1.9776  
G01 X-1.2061 Y1.9835  
G01 X-1.2339 Y1.9835  
G01 X-1.2535 Y1.9639  
G01 X-1.2535 Y1.9361  
G01 X-1.2339 Y1.9165  
G01 X-1.2061 Y1.9165  
G00 Z0.0500  
G00 X-0.9960 Y1.5474  
G01 Z-0.0035 F10    
G01 X-0.9997 Y1.5419  F20    
G01 X-1.0022 Y1.5358  
G01 X-1.0035 Y1.5293  
G01 X-1.0035 Y1.4707  
G01 X-1.0022 Y1.4642  
G01 X-0.9997 Y1.4581  
G01 X-0.9960 Y1.4526  
G01 X-0.9914 Y1.4480  
G01 X-0.9859 Y1.4443  
G01 X-0.9798 Y1.4418  
G01 X-0.9733 Y1.4405  
G01 X-0.9667 Y1.4405  
G01 X-0.9602 Y1.4418  
G01 X-0.9541 Y1.4443  
G01 X-0.9486 Y1.4480  
G01 X-0.9440 Y1.4526  
G01 X-0.9403 Y1.4581  
G01 X-0.9378 Y1.4642  
G01 X-0.9365 Y1.4707  
G01 X-0.9365 Y1.4767  
G01 X-0.9331 Y1.4774  
G01 X-0.9289 Y1.4792  
G01 X-0.9250 Y1.4817  
G01 X-0.8453 Y1.5615  
G01 X-0.7348 Y1.5615  
G01 X-0.7063 Y1.5493  
G01 X-0.7061 Y1.5492  
G01 X-0.7041 Y1.5483  
G01 X-0.7021 Y1.5475  
G01 X-0.7020 Y1.5475  
G01 X-0.7019 Y1.5474  
G01 X-0.6997 Y1.5470  
G01 X-0.6976 Y1.5465  
G01 X-0.6975 Y1.5465  
G01 X-0.6973 Y1.5465  
G01 X-0.6951 Y1.5465  
G01 X-0.6930 Y1.5465  
G01 X-0.6928 Y1.5465  
G01 X-0.6455 Y1.5465  
G01 X-0.6438 Y1.5464  
G01 X-0.6432 Y1.5465  
G01 X-0.6427 Y1.5465  
G01 X-0.6410 Y1.5468  
G01 X-0.6392 Y1.5471  
G01 X-0.6387 Y1.5473  
G01 X-0.6381 Y1.5474  
G01 X-0.6365 Y1.5481  
G01 X-0.6348 Y1.5487  
G01 X-0.6344 Y1.5490  
G01 X-0.6339 Y1.5492  
G01 X-0.6324 Y1.5502  
G01 X-0.6309 Y1.5511  
G01 X-0.6305 Y1.5514  
G01 X-0.6300 Y1.5517  
G01 X-0.6288 Y1.5530  
G01 X-0.4055 Y1.7564  
G01 X-0.4050 Y1.7567  
G01 X-0.4038 Y1.7580  
G01 X-0.4025 Y1.7592  
G01 X-0.4021 Y1.7596  
G01 X-0.4017 Y1.7600  
G01 X-0.4008 Y1.7615  
G01 X-0.3997 Y1.7629  
G01 X-0.3995 Y1.7634  
G01 X-0.3992 Y1.7639  
G01 X-0.3985 Y1.7655  
G01 X-0.3977 Y1.7671  
G01 X-0.3976 Y1.7676  
G01 X-0.3974 Y1.7681  
G01 X-0.3971 Y1.7699  
G01 X-0.3966 Y1.7716  
G01 X-0.3966 Y1.7721  
G01 X-0.3965 Y1.7727  
G01 X-0.3965 Y1.7745  
G01 X-0.3964 Y1.7762  
G01 X-0.3965 Y1.7768  
G01 X-0.3965 Y1.8413  
G01 X-0.3963 Y1.8414  
G01 X-0.3911 Y1.8466  
G01 X-0.3870 Y1.8527  
G01 X-0.3842 Y1.8595  
G01 X-0.3828 Y1.8667  
G01 X-0.3828 Y1.9333  
G01 X-0.3842 Y1.9405  
G01 X-0.3870 Y1.9473  
G01 X-0.3911 Y1.9534  
G01 X-0.3963 Y1.9586  
G01 X-0.4024 Y1.9626  
G01 X-0.4092 Y1.9654  
G01 X-0.4163 Y1.9669  
G01 X-0.4237 Y1.9669  
G01 X-0.4308 Y1.9654  
G01 X-0.4376 Y1.9626  
G01 X-0.4437 Y1.9586  
G01 X-0.4489 Y1.9534  
G01 X-0.4530 Y1.9473  
G01 X-0.4558 Y1.9405  
G01 X-0.4572 Y1.9333  
G01 X-0.4572 Y1.8667  
G01 X-0.4558 Y1.8595  
G01 X-0.4530 Y1.8527  
G01 X-0.4489 Y1.8466  
G01 X-0.4437 Y1.8414  
G01 X-0.4435 Y1.8413  
G01 X-0.4435 Y1.7854  
G01 X-0.6541 Y1.5935  
G01 X-0.6902 Y1.5935  
G01 X-0.7187 Y1.6057  
G01 X-0.7189 Y1.6058  
G01 X-0.7209 Y1.6067  
G01 X-0.7229 Y1.6075  
G01 X-0.7230 Y1.6075  
G01 X-0.7231 Y1.6076  
G01 X-0.7253 Y1.6080  
G01 X-0.7274 Y1.6085  
G01 X-0.7275 Y1.6085  
G01 X-0.7277 Y1.6085  
G01 X-0.7299 Y1.6085  
G01 X-0.7320 Y1.6085  
G01 X-0.7322 Y1.6085  
G01 X-0.8573 Y1.6085  
G01 X-0.8619 Y1.6076  
G01 X-0.8661 Y1.6058  
G01 X-0.8700 Y1.6033  
G01 X-0.8733 Y1.6000  
G01 X-0.9377 Y1.5355  
G01 X-0.9378 Y1.5358  
G01 X-0.9403 Y1.5419  
G01 X-0.9440 Y1.5474  
G01 X-0.9486 Y1.5520  
G01 X-0.9541 Y1.5557  
G01 X-0.9602 Y1.5582  
G01 X-0.9667 Y1.5595  
G01 X-0.9733 Y1.5595  
G01 X-0.9798 Y1.5582  
G01 X-0.9859 Y1.5557  
G01 X-0.9914 Y1.5520  
G01 X-0.9960 Y1.5474  
G00 Z0.0500  
G00 X-0.6839 Y1.6265  
G01 Z-0.0035 F10    
G01 X-0.6561 Y1.6265  F20    
G01 X-0.6365 Y1.6461  
G01 X-0.6365 Y1.6739  
G01 X-0.6465 Y1.6839  
G01 X-0.6465 Y1.7403  
G01 X-0.5445 Y1.8422  
G01 X-0.5437 Y1.8414  
G01 X-0.5376 Y1.8374  
G01 X-0.5308 Y1.8346  
G01 X-0.5237 Y1.8331  
G01 X-0.5163 Y1.8331  
G01 X-0.5092 Y1.8346  
G01 X-0.5024 Y1.8374  
G01 X-0.4963 Y1.8414  
G01 X-0.4911 Y1.8466  
G01 X-0.4870 Y1.8527  
G01 X-0.4842 Y1.8595  
G01 X-0.4828 Y1.8667  
G01 X-0.4828 Y1.9333  
G01 X-0.4842 Y1.9405  
G01 X-0.4870 Y1.9473  
G01 X-0.4911 Y1.9534  
G01 X-0.4963 Y1.9586  
G01 X-0.5024 Y1.9626  
G01 X-0.5092 Y1.9654  
G01 X-0.5163 Y1.9669  
G01 X-0.5237 Y1.9669  
G01 X-0.5308 Y1.9654  
G01 X-0.5376 Y1.9626  
G01 X-0.5437 Y1.9586  
G01 X-0.5489 Y1.9534  
G01 X-0.5530 Y1.9473  
G01 X-0.5558 Y1.9405  
G01 X-0.5572 Y1.9333  
G01 X-0.5572 Y1.8960  
G01 X-0.6883 Y1.7650  
G01 X-0.6908 Y1.7611  
G01 X-0.6926 Y1.7569  
G01 X-0.6935 Y1.7523  
G01 X-0.6935 Y1.6839  
G01 X-0.7035 Y1.6739  
G01 X-0.7035 Y1.6461  
G01 X-0.6839 Y1.6265  
G00 Z0.0500  
G00 X-0.6235 Y1.4639  
G01 Z-0.0035 F10    
G01 X-0.6235 Y1.4547  F20    
G01 X-0.7133 Y1.3650  
G01 X-0.7158 Y1.3611  
G01 X-0.7176 Y1.3569  
G01 X-0.7185 Y1.3523  
G01 X-0.7185 Y1.3289  
G01 X-0.7335 Y1.3139  
G01 X-0.7335 Y1.2861  
G01 X-0.7139 Y1.2665  
G01 X-0.6861 Y1.2665  
G01 X-0.6665 Y1.2861  
G01 X-0.6665 Y1.3139  
G01 X-0.6715 Y1.3189  
G01 X-0.6715 Y1.3403  
G01 X-0.5953 Y1.4165  
G01 X-0.5761 Y1.4165  
G01 X-0.5735 Y1.4191  
G01 X-0.4835 Y1.3870  
G01 X-0.4835 Y1.3861  
G01 X-0.4639 Y1.3665  
G01 X-0.4361 Y1.3665  
G01 X-0.4165 Y1.3861  
G01 X-0.4165 Y1.4139  
G01 X-0.4361 Y1.4335  
G01 X-0.4639 Y1.4335  
G01 X-0.4665 Y1.4309  
G01 X-0.5565 Y1.4630  
G01 X-0.5565 Y1.4639  
G01 X-0.5761 Y1.4835  
G01 X-0.6039 Y1.4835  
G01 X-0.6235 Y1.4639  
G00 Z0.0500  
G00 X-0.4335 Y1.4611  
G01 Z-0.0035 F10    
G01 X-0.4139 Y1.4415  F20    
G01 X-0.3861 Y1.4415  
G01 X-0.3665 Y1.4611  
G01 X-0.3665 Y1.4889  
G01 X-0.3690 Y1.4914  
G01 X-0.3584 Y1.5206  
G01 X-0.3580 Y1.5214  
G01 X-0.3576 Y1.5228  
G01 X-0.3571 Y1.5241  
G01 X-0.3570 Y1.5250  
G01 X-0.3567 Y1.5259  
G01 X-0.3566 Y1.5273  
