(/Applications/pcbgcode.repo/pcb-gcode.ulp)
(Copyright 2005 - 2012 by John Johnson)
(See readme.txt for licensing terms.)
(This file generated from the board:)
(.../eurorack/CR78-SD/eagle/CR78-SD.brd)
(Current profile is .../pcbgcode.repo/profiles/mach.pp  )
(This file generated 6/10/16 9:58 PM)
(Settings from pcb-machine.h)
(spindle on time = 0.0000)
(spindle speed = 20000.0000)
(tool change at 0.0000  0.0000  1.5000  )
(feed rate xy = F0     )
(feed rate z  = F20    )
(Z Axis Settings)
(  High     Up        Down     Drill)
(0.2500  	0.0500  	-0.0035 	-0.0750 )
(Settings from pcb-defaults.h)
(isolate min = 0.0050)
(isolate max = 0.0200)
(isolate step = 0.0010)
(Generated bottom outlines, bottom drill, )
(Unit of measure: inch)
( Tool|       Size       |  Min Sub |  Max Sub |   Count )
( T01 | 0.813mm 0.0320in | 0.0000in | 0.0000in |       0 )
( T02 | 1.000mm 0.0394in | 0.0000in | 0.0000in |       0 )
( T03 | 1.300mm 0.0512in | 0.0000in | 0.0000in |       0 )
(Inch Mode)
G20
(Absolute Coordinates)
G90
S20000
G00 Z0.2500  
G00 X0.0000  Y0.0000  
M03
G04 P0.000000
M05
G00 Z1.5000  
M06 T01  ; 0.0320  
G01 Z0.0000  F20    
M06 
G00 Z0.0500  
M03
G04 P0.000000
G82 X-0.2200 Y0.6500  Z-0.0750 F20    R0.0500  P0.020000
G82 X-0.2500 Y0.8300  
G82 X-0.4200 Y0.9500  
G82 X-0.4500 Y1.0900  
G82 X-0.5700 Y1.2100  
G82 X-0.6500 Y1.0900  
G82 X-0.7200 Y0.9500  
G82 X-0.5500 Y0.8300  
G82 X-0.6300 Y0.7550  
G82 X-0.6800 Y0.6800  
G82 X-0.7700 Y0.7000  
G82 X-0.7200 Y0.5200  
G82 X-0.5800 Y0.6800  
G82 X-0.4200 Y0.6500  
G82 X-0.8700 Y0.3000  
G82 X-1.0200 Y0.5200  
G82 X-1.1700 Y0.4500  
G82 X-1.2700 Y0.4500  
G82 X-1.3700 Y0.5000  
G82 X-1.4700 Y0.6000  
G82 X-1.3950 Y0.6500  
G82 X-1.4700 Y0.7000  
G82 X-1.4700 Y0.8500  
G82 X-1.2700 Y0.7500  
G82 X-1.1700 Y0.7500  
G82 X-1.1700 Y0.8500  
G82 X-1.1200 Y1.0200  
G82 X-1.3200 Y1.0200  
G82 X-1.3200 Y1.2000  
G82 X-1.2200 Y1.2000  
G82 X-1.2700 Y1.3500  
G82 X-1.2700 Y1.5200  
G82 X-1.2700 Y1.6200  
G82 X-1.1700 Y1.7000  
G82 X-1.1700 Y1.5000  
G82 X-1.0700 Y1.5000  
G82 X-0.9700 Y1.5000  
G82 X-0.7900 Y1.4500  
G82 X-0.7000 Y1.3000  
G82 X-0.5900 Y1.4500  
G82 X-0.4500 Y1.4000  
G82 X-0.4000 Y1.4750  
G82 X-0.3500 Y1.4000  
G82 X-0.2700 Y1.2100  
G82 X-0.3700 Y1.6600  
G82 X-0.6700 Y1.6600  
G82 X-0.8700 Y1.7000  
G82 X-0.8200 Y1.8500  
G82 X-0.8600 Y1.9800  
G82 X-1.0600 Y1.9800  
G82 X-1.0200 Y1.8500  
G82 X-1.2200 Y1.9500  
G82 X-1.3700 Y1.8000  
G82 X-1.4200 Y1.7250  
G82 X-1.4700 Y1.8000  
G82 X-1.5700 Y1.9000  
G82 X-1.5200 Y1.9500  
G82 X-1.5700 Y1.6200  
G82 X-1.5700 Y1.5200  
G82 X-1.7200 Y1.4500  
G82 X-1.8700 Y1.4000  
G82 X-2.0200 Y1.4000  
G82 X-2.0700 Y1.4750  
G82 X-2.0200 Y1.5500  
G82 X-2.1200 Y1.5500  
G82 X-1.8700 Y1.5500  
G82 X-1.8700 Y1.7500  
G82 X-1.8700 Y1.9000  
G82 X-1.7200 Y1.2500  
G82 X-1.6200 Y1.2000  
G82 X-1.7200 Y1.1000  
G82 X-1.8700 Y1.1000  
G82 X-2.0200 Y1.1000  
G82 X-1.8700 Y0.9500  
G82 X-1.8700 Y0.8000  
G82 X-1.8700 Y0.6500  
G82 X-2.0700 Y0.6500  
G82 X-2.0700 Y0.8000  
G82 X-2.1700 Y0.9500  
G82 X-1.7200 Y0.8000  
G82 X-1.6700 Y0.5000  
G82 X-1.7600 Y0.3900  
G82 X-1.8700 Y0.3400  
G82 X-1.8700 Y0.4500  
G82 X-2.0700 Y0.4500  
G82 X-2.0700 Y0.3400  
G82 X-1.5900 Y0.2800  
G82 X-1.4600 Y0.3900  
G82 X-1.2900 Y0.2800  
G82 X-1.1700 Y0.3000  
G82 X-1.0700 Y0.7000  
G82 X-0.9200 Y1.2000  
G82 X-1.0000 Y1.3000  
G82 X-1.4700 Y1.3500  
M05
G00 Z1.5000  
G00 X0.0000  Y0.0000  
M06 T02  ; 0.0394  
G01 Z0.0000  F20    
M06 
G00 Z0.0500  
M03
G04 P0.000000
G82 X-0.1200 Y1.9000  Z-0.0750 F20    R0.0500  P0.020000
G82 X-0.2200 Y1.9000  
G82 X-0.3200 Y1.9000  
G82 X-0.4200 Y1.9000  
G82 X-0.5200 Y1.9000  
M05
G00 Z1.5000  
G00 X0.0000  Y0.0000  
M06 T03  ; 0.0512  
G01 Z0.0000  F20    
M06 
G00 Z0.0500  
M03
G04 P0.000000
G82 X-0.0980 Y0.2530  Z-0.0750 F20    R0.0500  P0.020000
G82 X-0.0984 Y0.2869  
G82 X-0.0980 Y0.3200  
G82 X-0.4980 Y0.0820  
G82 X-0.5315 Y0.0821  
G82 X-0.5650 Y0.0820  
G82 X-0.6180 Y0.2540  
G82 X-0.6181 Y0.2869  
G82 X-0.6180 Y0.3200  
T01 
G00 Z0.2500  
M05
M02
